(.../Documents/EAGLE/ulps/pcb-gcode.ulp)
(Copyright 2005 - 2012 by John Johnson)
(See readme.txt for licensing terms.)
(This file generated from the board:)
(.../MarazLiteKumanda/MarazLiteKumanda.brd)
(Current profile is .../Documents/EAGLE/ulps/profiles/mach.pp  )
(This file generated 9.09.2019 01:41)
(Settings from pcb-machine.h)
(  Tool Size)
(0.1800  )
(Z Axis Settings)
(  High     Up        Down     Drill)
(12.7000 	2.5400  	-0.2200 	-0.8128 )
(spindle on time = 3.0000)
(milling depth = -0.2540)
(text depth = -0.1270)
(tool change at 12.7000 15.2400 25.4000 )
(feed rate xy = F508   )
(feed rate z  = F254   )
(Settings from pcb-defaults.h)
(isolate min = 0.0254)
(isolate max = 0.5080)
(isolate step = 0.1270)
(Generated bottom outlines, bottom drill, )
(Unit of measure: mm)
(Metric Mode)
G21
(Absolute Coordinates)
G90
G00 X0.0000  Y0.0000  
M03
G04 P3.000000
G00 Z2.5400  
G00 X31.6182 Y70.0188 
G01 Z-0.2200 F254   
G01 X31.0812 Y69.4817 F508   
G01 X30.4234 Y69.1020 
G01 X29.6898 Y68.9054 
G01 X28.9302 Y68.9054 
G01 X28.1966 Y69.1020 
G01 X27.5388 Y69.4817 
G01 X27.0017 Y70.0188 
G01 X26.6220 Y70.6766 
G01 X26.4254 Y71.4102 
G01 X26.4254 Y72.1698 
G01 X26.6220 Y72.9034 
G01 X26.6508 Y72.9533 
G01 X26.6664 Y72.9736 
G01 X26.6697 Y72.9860 
G01 X26.6761 Y72.9972 
G01 X26.6795 Y73.0225 
G01 X26.6861 Y73.0472 
G01 X26.6844 Y73.0600 
G01 X26.6861 Y73.0728 
G01 X26.6795 Y73.0974 
G01 X26.6761 Y73.1228 
G01 X26.6697 Y73.1339 
G01 X26.6664 Y73.1464 
G01 X26.6508 Y73.1667 
G01 X26.6220 Y73.2166 
G01 X26.4254 Y73.9502 
G01 X26.4254 Y74.7098 
G01 X26.6220 Y75.4434 
G01 X27.0017 Y76.1012 
G01 X27.5388 Y76.6382 
G01 X28.1966 Y77.0180 
G01 X28.9302 Y77.2146 
G01 X29.6898 Y77.2146 
G01 X30.4234 Y77.0180 
G01 X31.0812 Y76.6382 
G01 X31.6182 Y76.1012 
G01 X31.9980 Y75.4434 
G01 X32.1946 Y74.7098 
G01 X32.1946 Y73.9502 
G01 X31.9980 Y73.2166 
G01 X31.9692 Y73.1667 
G01 X31.9536 Y73.1464 
G01 X31.9503 Y73.1339 
G01 X31.9439 Y73.1228 
G01 X31.9405 Y73.0974 
G01 X31.9339 Y73.0728 
G01 X31.9356 Y73.0600 
G01 X31.9339 Y73.0472 
G01 X31.9405 Y73.0225 
G01 X31.9439 Y72.9972 
G01 X31.9503 Y72.9860 
G01 X31.9536 Y72.9736 
G01 X31.9692 Y72.9533 
G01 X31.9980 Y72.9034 
G01 X32.1946 Y72.1698 
G01 X32.1946 Y71.4102 
G01 X31.9980 Y70.6766 
G01 X31.6182 Y70.0188 
G00 Z2.5400  
G00 X30.4254 Y74.2422 
G01 Z-0.2200 F254   
G01 X30.4254 Y74.4178 F508   
G01 X30.3979 Y74.5912 
G01 X30.3437 Y74.7582 
G01 X30.2640 Y74.9146 
G01 X30.1608 Y75.0566 
G01 X30.0366 Y75.1808 
G01 X29.8946 Y75.2840 
G01 X29.7382 Y75.3637 
G01 X29.5712 Y75.4179 
G01 X29.3978 Y75.4454 
G01 X29.2222 Y75.4454 
G01 X29.0488 Y75.4179 
G01 X28.8818 Y75.3637 
G01 X28.7254 Y75.2840 
G01 X28.5834 Y75.1808 
G01 X28.4592 Y75.0566 
G01 X28.3560 Y74.9146 
G01 X28.2763 Y74.7582 
G01 X28.2221 Y74.5912 
G01 X28.1946 Y74.4178 
G01 X28.1946 Y74.2422 
G01 X28.2221 Y74.0688 
G01 X28.2763 Y73.9018 
G01 X28.3560 Y73.7454 
G01 X28.4592 Y73.6034 
G01 X28.5834 Y73.4792 
G01 X28.7254 Y73.3760 
G01 X28.8818 Y73.2963 
G01 X29.0488 Y73.2421 
G01 X29.2222 Y73.2146 
G01 X29.3978 Y73.2146 
G01 X29.5712 Y73.2421 
G01 X29.7382 Y73.2963 
G01 X29.8946 Y73.3760 
G01 X30.0366 Y73.4792 
G01 X30.1608 Y73.6034 
G01 X30.2640 Y73.7454 
G01 X30.3437 Y73.9018 
G01 X30.3979 Y74.0688 
G01 X30.4254 Y74.2422 
G00 Z2.5400  
G00 X30.4254 Y71.7022 
G01 Z-0.2200 F254   
G01 X30.4254 Y71.8778 F508   
G01 X30.3979 Y72.0512 
G01 X30.3437 Y72.2182 
G01 X30.2640 Y72.3746 
G01 X30.1608 Y72.5166 
G01 X30.0366 Y72.6408 
G01 X29.8946 Y72.7440 
G01 X29.7382 Y72.8237 
G01 X29.5712 Y72.8779 
G01 X29.3978 Y72.9054 
G01 X29.2222 Y72.9054 
G01 X29.0488 Y72.8779 
G01 X28.8818 Y72.8237 
G01 X28.7254 Y72.7440 
G01 X28.5834 Y72.6408 
G01 X28.4592 Y72.5166 
G01 X28.3560 Y72.3746 
G01 X28.2763 Y72.2182 
G01 X28.2221 Y72.0512 
G01 X28.1946 Y71.8778 
G01 X28.1946 Y71.7022 
G01 X28.2221 Y71.5288 
G01 X28.2763 Y71.3618 
G01 X28.3560 Y71.2054 
G01 X28.4592 Y71.0634 
G01 X28.5834 Y70.9392 
G01 X28.7254 Y70.8360 
G01 X28.8818 Y70.7563 
G01 X29.0488 Y70.7021 
G01 X29.2222 Y70.6746 
G01 X29.3978 Y70.6746 
G01 X29.5712 Y70.7021 
G01 X29.7382 Y70.7563 
G01 X29.8946 Y70.8360 
G01 X30.0366 Y70.9392 
G01 X30.1608 Y71.0634 
G01 X30.2640 Y71.2054 
G01 X30.3437 Y71.3618 
G01 X30.3979 Y71.5288 
G01 X30.4254 Y71.7022 
G00 Z2.5400  
G00 X18.6182 Y70.0188 
G01 Z-0.2200 F254   
G01 X18.0812 Y69.4817 F508   
G01 X17.4234 Y69.1020 
G01 X16.6898 Y68.9054 
G01 X15.9302 Y68.9054 
G01 X15.1966 Y69.1020 
G01 X14.5388 Y69.4817 
G01 X14.0017 Y70.0188 
G01 X13.6220 Y70.6766 
G01 X13.4254 Y71.4102 
G01 X13.4254 Y72.1698 
G01 X13.6220 Y72.9034 
G01 X13.6508 Y72.9533 
G01 X13.6664 Y72.9736 
G01 X13.6697 Y72.9860 
G01 X13.6761 Y72.9972 
G01 X13.6795 Y73.0225 
G01 X13.6861 Y73.0472 
G01 X13.6844 Y73.0600 
G01 X13.6861 Y73.0728 
G01 X13.6795 Y73.0974 
G01 X13.6761 Y73.1228 
G01 X13.6697 Y73.1339 
G01 X13.6664 Y73.1464 
G01 X13.6508 Y73.1667 
G01 X13.6220 Y73.2166 
G01 X13.4254 Y73.9502 
G01 X13.4254 Y74.7098 
G01 X13.6220 Y75.4434 
G01 X14.0017 Y76.1012 
G01 X14.5388 Y76.6382 
G01 X15.1966 Y77.0180 
G01 X15.9302 Y77.2146 
G01 X16.6898 Y77.2146 
G01 X17.4234 Y77.0180 
G01 X18.0812 Y76.6382 
G01 X18.6182 Y76.1012 
G01 X18.9980 Y75.4434 
G01 X19.1946 Y74.7098 
G01 X19.1946 Y73.9502 
G01 X18.9980 Y73.2166 
G01 X18.9692 Y73.1667 
G01 X18.9536 Y73.1464 
G01 X18.9503 Y73.1339 
G01 X18.9439 Y73.1228 
G01 X18.9405 Y73.0974 
G01 X18.9339 Y73.0728 
G01 X18.9356 Y73.0600 
G01 X18.9339 Y73.0472 
G01 X18.9405 Y73.0225 
G01 X18.9439 Y72.9972 
G01 X18.9503 Y72.9860 
G01 X18.9536 Y72.9736 
G01 X18.9692 Y72.9533 
G01 X18.9980 Y72.9034 
G01 X19.1946 Y72.1698 
G01 X19.1946 Y71.4102 
G01 X18.9980 Y70.6766 
G01 X18.6182 Y70.0188 
G00 Z2.5400  
G00 X17.4254 Y74.2422 
G01 Z-0.2200 F254   
G01 X17.4254 Y74.4178 F508   
G01 X17.3979 Y74.5912 
G01 X17.3437 Y74.7582 
G01 X17.2640 Y74.9146 
G01 X17.1608 Y75.0566 
G01 X17.0366 Y75.1808 
G01 X16.8946 Y75.2840 
G01 X16.7382 Y75.3637 
G01 X16.5712 Y75.4179 
G01 X16.3978 Y75.4454 
G01 X16.2222 Y75.4454 
G01 X16.0488 Y75.4179 
G01 X15.8818 Y75.3637 
G01 X15.7254 Y75.2840 
G01 X15.5834 Y75.1808 
G01 X15.4592 Y75.0566 
G01 X15.3560 Y74.9146 
G01 X15.2763 Y74.7582 
G01 X15.2221 Y74.5912 
G01 X15.1946 Y74.4178 
G01 X15.1946 Y74.2422 
G01 X15.2221 Y74.0688 
G01 X15.2763 Y73.9018 
G01 X15.3560 Y73.7454 
G01 X15.4592 Y73.6034 
G01 X15.5834 Y73.4792 
G01 X15.7254 Y73.3760 
G01 X15.8818 Y73.2963 
G01 X16.0488 Y73.2421 
G01 X16.2222 Y73.2146 
G01 X16.3978 Y73.2146 
G01 X16.5712 Y73.2421 
G01 X16.7382 Y73.2963 
G01 X16.8946 Y73.3760 
G01 X17.0366 Y73.4792 
G01 X17.1608 Y73.6034 
G01 X17.2640 Y73.7454 
G01 X17.3437 Y73.9018 
G01 X17.3979 Y74.0688 
G01 X17.4254 Y74.2422 
G00 Z2.5400  
G00 X17.4254 Y71.7022 
G01 Z-0.2200 F254   
G01 X17.4254 Y71.8778 F508   
G01 X17.3979 Y72.0512 
G01 X17.3437 Y72.2182 
G01 X17.2640 Y72.3746 
G01 X17.1608 Y72.5166 
G01 X17.0366 Y72.6408 
G01 X16.8946 Y72.7440 
G01 X16.7382 Y72.8237 
G01 X16.5712 Y72.8779 
G01 X16.3978 Y72.9054 
G01 X16.2222 Y72.9054 
G01 X16.0488 Y72.8779 
G01 X15.8818 Y72.8237 
G01 X15.7254 Y72.7440 
G01 X15.5834 Y72.6408 
G01 X15.4592 Y72.5166 
G01 X15.3560 Y72.3746 
G01 X15.2763 Y72.2182 
G01 X15.2221 Y72.0512 
G01 X15.1946 Y71.8778 
G01 X15.1946 Y71.7022 
G01 X15.2221 Y71.5288 
G01 X15.2763 Y71.3618 
G01 X15.3560 Y71.2054 
G01 X15.4592 Y71.0634 
G01 X15.5834 Y70.9392 
G01 X15.7254 Y70.8360 
G01 X15.8818 Y70.7563 
G01 X16.0488 Y70.7021 
G01 X16.2222 Y70.6746 
G01 X16.3978 Y70.6746 
G01 X16.5712 Y70.7021 
G01 X16.7382 Y70.7563 
G01 X16.8946 Y70.8360 
G01 X17.0366 Y70.9392 
G01 X17.1608 Y71.0634 
G01 X17.2640 Y71.2054 
G01 X17.3437 Y71.3618 
G01 X17.3979 Y71.5288 
G01 X17.4254 Y71.7022 
G00 Z2.5400  
G00 X8.1345  Y90.0977 
G01 Z-0.2200 F254   
G01 X8.1345  Y90.0977 F508   
G01 X8.1195  Y90.0268 
G01 X8.0947  Y89.9587 
G01 X8.0606  Y89.8947 
G01 X8.0180  Y89.8360 
G01 X7.9677  Y89.7839 
G01 X7.9106  Y89.7392 
G01 X7.8478  Y89.7030 
G01 X7.7806  Y89.6758 
G01 X7.7102  Y89.6583 
G01 X7.6381  Y89.6507 
G01 X7.5657  Y89.6532 
G01 X7.4943  Y89.6658 
G01 X7.4254  Y89.6882 
G01 X7.3602  Y89.7200 
G01 X7.3001  Y89.7605 
G01 X7.2462  Y89.8091 
G01 X7.1996  Y89.8646 
G01 X7.1612  Y89.9261 
G01 X7.1317  Y89.9923 
G01 X7.1118  Y90.0620 
G01 X7.1017  Y90.1338 
G01 X7.1017  Y90.2062 
G01 X7.1118  Y90.2780 
G01 X7.1317  Y90.3477 
G01 X7.1612  Y90.4139 
G01 X7.1996  Y90.4754 
G01 X7.2462  Y90.5309 
G01 X7.3001  Y90.5795 
G01 X7.3602  Y90.6200 
G01 X7.4254  Y90.6518 
G01 X7.4943  Y90.6742 
G01 X7.5657  Y90.6868 
G01 X7.6381  Y90.6893 
G01 X7.7102  Y90.6817 
G01 X7.7806  Y90.6642 
G01 X7.8478  Y90.6370 
G01 X7.9106  Y90.6008 
G01 X7.9677  Y90.5561 
G01 X8.0180  Y90.5040 
G01 X8.0606  Y90.4453 
G01 X8.0947  Y90.3813 
G01 X8.1195  Y90.3132 
G01 X8.1345  Y90.2423 
G01 X8.1396  Y90.1700 
G01 X8.1345  Y90.0977 
G00 Z2.5400  
G00 X64.0145 Y90.0977 
G01 Z-0.2200 F254   
G01 X63.9995 Y90.0268 F508   
G01 X63.9747 Y89.9587 
G01 X63.9406 Y89.8947 
G01 X63.8980 Y89.8360 
G01 X63.8477 Y89.7839 
G01 X63.7906 Y89.7392 
G01 X63.7278 Y89.7030 
G01 X63.6606 Y89.6758 
G01 X63.5902 Y89.6583 
G01 X63.5181 Y89.6507 
G01 X63.4457 Y89.6532 
G01 X63.3743 Y89.6658 
G01 X63.3054 Y89.6882 
G01 X63.2402 Y89.7200 
G01 X63.1801 Y89.7605 
G01 X63.1262 Y89.8091 
G01 X63.0796 Y89.8646 
G01 X63.0412 Y89.9261 
G01 X63.0117 Y89.9923 
G01 X62.9918 Y90.0620 
G01 X62.9817 Y90.1338 
G01 X62.9817 Y90.2062 
G01 X62.9918 Y90.2780 
G01 X63.0117 Y90.3477 
G01 X63.0412 Y90.4139 
G01 X63.0796 Y90.4754 
G01 X63.1262 Y90.5309 
G01 X63.1801 Y90.5795 
G01 X63.2402 Y90.6200 
G01 X63.3054 Y90.6518 
G01 X63.3743 Y90.6742 
G01 X63.4457 Y90.6868 
G01 X63.5181 Y90.6893 
G01 X63.5902 Y90.6817 
G01 X63.6606 Y90.6642 
G01 X63.7278 Y90.6370 
G01 X63.7906 Y90.6008 
G01 X63.8477 Y90.5561 
G01 X63.8980 Y90.5040 
G01 X63.9406 Y90.4453 
G01 X63.9747 Y90.3813 
G01 X63.9995 Y90.3132 
G01 X64.0145 Y90.2423 
G01 X64.0196 Y90.1700 
G01 X64.0145 Y90.0977 
G00 Z2.5400  
G00 X64.0145 Y5.0077  
G01 Z-0.2200 F254   
G01 X63.9995 Y4.9368  F508   
G01 X63.9747 Y4.8687  
G01 X63.9406 Y4.8047  
G01 X63.8980 Y4.7460  
G01 X63.8477 Y4.6939  
G01 X63.7906 Y4.6492  
G01 X63.7278 Y4.6130  
G01 X63.6606 Y4.5858  
G01 X63.5902 Y4.5683  
G01 X63.5181 Y4.5607  
G01 X63.4457 Y4.5632  
G01 X63.3743 Y4.5758  
G01 X63.3054 Y4.5982  
G01 X63.2402 Y4.6300  
G01 X63.1801 Y4.6705  
G01 X63.1262 Y4.7191  
G01 X63.0796 Y4.7746  
G01 X63.0412 Y4.8361  
G01 X63.0117 Y4.9023  
G01 X62.9918 Y4.9720  
G01 X62.9817 Y5.0438  
G01 X62.9817 Y5.1162  
G01 X62.9918 Y5.1880  
G01 X63.0117 Y5.2577  
G01 X63.0412 Y5.3239  
G01 X63.0796 Y5.3854  
G01 X63.1262 Y5.4409  
G01 X63.1801 Y5.4895  
G01 X63.2402 Y5.5300  
G01 X63.3054 Y5.5618  
G01 X63.3743 Y5.5842  
G01 X63.4457 Y5.5968  
G01 X63.5181 Y5.5993  
G01 X63.5902 Y5.5917  
G01 X63.6606 Y5.5742  
G01 X63.7278 Y5.5470  
G01 X63.7906 Y5.5108  
G01 X63.8477 Y5.4661  
G01 X63.8980 Y5.4140  
G01 X63.9406 Y5.3553  
G01 X63.9747 Y5.2913  
G01 X63.9995 Y5.2232  
G01 X64.0145 Y5.1523  
G01 X64.0196 Y5.0800  
G01 X64.0145 Y5.0077  
G00 Z2.5400  
G00 X8.1345  Y5.0077  
G01 Z-0.2200 F254   
G01 X8.1195  Y4.9368  F508   
G01 X8.0947  Y4.8687  
G01 X8.0606  Y4.8047  
G01 X8.0180  Y4.7460  
G01 X7.9677  Y4.6939  
G01 X7.9106  Y4.6492  
G01 X7.8478  Y4.6130  
G01 X7.7806  Y4.5858  
G01 X7.7102  Y4.5683  
G01 X7.6381  Y4.5607  
G01 X7.5657  Y4.5632  
G01 X7.4943  Y4.5758  
G01 X7.4254  Y4.5982  
G01 X7.3602  Y4.6300  
G01 X7.3001  Y4.6705  
G01 X7.2462  Y4.7191  
G01 X7.1996  Y4.7746  
G01 X7.1612  Y4.8361  
G01 X7.1317  Y4.9023  
G01 X7.1118  Y4.9720  
G01 X7.1017  Y5.0438  
G01 X7.1017  Y5.1162  
G01 X7.1118  Y5.1880  
G01 X7.1317  Y5.2577  
G01 X7.1612  Y5.3239  
G01 X7.1996  Y5.3854  
G01 X7.2462  Y5.4409  
G01 X7.3001  Y5.4895  
G01 X7.3602  Y5.5300  
G01 X7.4254  Y5.5618  
G01 X7.4943  Y5.5842  
G01 X7.5657  Y5.5968  
G01 X7.6381  Y5.5993  
G01 X7.7102  Y5.5917  
G01 X7.7806  Y5.5742  
G01 X7.8478  Y5.5470  
G01 X7.9106  Y5.5108  
G01 X7.9677  Y5.4661  
G01 X8.0180  Y5.4140  
G01 X8.0606  Y5.3553  
G01 X8.0947  Y5.2913  
G01 X8.1195  Y5.2232  
G01 X8.1345  Y5.1523  
G01 X8.1396  Y5.0800  
G01 X8.1345  Y5.0077  
G00 Z2.5400  
G00 X11.8502 Y13.4781 
G01 Z-0.2200 F254   
G01 X11.8711 Y13.6102 F508   
G01 X11.9125 Y13.7374 
G01 X11.9496 Y13.8103 
G01 X11.9496 Y13.7596 
G01 X11.9052 Y13.6523 
G01 X11.8734 Y13.4926 
G01 X11.8734 Y12.9678 
G01 X11.8502 Y12.9678 
G01 X11.8502 Y13.4781 
G00 Z2.5400  
G00 X55.4389 Y17.4202 
G01 Z-0.2200 F254   
G01 X55.4598 Y17.2881 F508   
G01 X55.4598 Y16.7778 
G01 X55.4366 Y16.7778 
G01 X55.4366 Y17.3026 
G01 X55.4048 Y17.4623 
G01 X55.3604 Y17.5696 
G01 X55.3604 Y17.6203 
G01 X55.3975 Y17.5474 
G01 X55.4389 Y17.4202 
G00 Z2.5400  
G00 X55.4389 Y28.8502 
G01 Z-0.2200 F254   
G01 X55.4598 Y28.7181 F508   
G01 X55.4598 Y28.2078 
G01 X55.4366 Y28.2078 
G01 X55.4366 Y28.7326 
G01 X55.4048 Y28.8923 
G01 X55.3604 Y28.9996 
G01 X55.3604 Y29.0503 
G01 X55.3975 Y28.9774 
G01 X55.4389 Y28.8502 
G00 Z2.5400  
G00 X55.4389 Y40.2802 
G01 Z-0.2200 F254   
G01 X55.4598 Y40.1481 F508   
G01 X55.4598 Y39.6378 
G01 X55.4366 Y39.6378 
G01 X55.4366 Y40.1626 
G01 X55.4048 Y40.3223 
G01 X55.3604 Y40.4296 
G01 X55.3604 Y40.4803 
G01 X55.3975 Y40.4074 
G01 X55.4389 Y40.2802 
G00 Z2.5400  
G00 X39.6796 Y54.1870 
G01 Z-0.2200 F254   
G01 X39.6030 Y54.1104 F508   
G01 X39.5702 Y54.1104 
G01 X39.6796 Y54.2198 
G01 X39.6796 Y54.1870 
G00 Z2.5400  
G00 X18.2496 Y54.6870 
G01 Z-0.2200 F254   
G01 X18.1730 Y54.6104 F508   
G01 X18.1402 Y54.6104 
G01 X18.2496 Y54.7198 
G01 X18.2496 Y54.6870 
G00 Z2.5400  
G00 X15.5106 Y41.8540 
G01 Z-0.2200 F254   
G01 X15.5877 Y42.0052 F508   
G01 X15.6874 Y42.1425 
G01 X15.7596 Y42.2147 
G01 X15.7596 Y42.1819 
G01 X15.7051 Y42.1274 
G01 X15.6075 Y41.9930 
G01 X15.5321 Y41.8451 
G01 X15.4875 Y41.7078 
G01 X15.4631 Y41.7078 
G01 X15.5106 Y41.8540 
G00 Z2.5400  
G00 X11.7777 Y29.9148 
G01 Z-0.2200 F254   
G01 X11.7006 Y30.0660 F508   
G01 X11.6531 Y30.2122 
G01 X11.6775 Y30.2122 
G01 X11.7221 Y30.0749 
G01 X11.7975 Y29.9270 
G01 X11.8951 Y29.7926 
G01 X11.9496 Y29.7381 
G01 X11.9496 Y29.7053 
G01 X11.8774 Y29.7775 
G01 X11.7777 Y29.9148 
G00 Z2.5400  
G00 X11.8502 Y23.6381 
G01 Z-0.2200 F254   
G01 X11.8711 Y23.7702 F508   
G01 X11.9125 Y23.8974 
G01 X11.9496 Y23.9703 
G01 X11.9496 Y23.9196 
G01 X11.9052 Y23.8123 
G01 X11.8734 Y23.6526 
G01 X11.8734 Y23.1278 
G01 X11.8502 Y23.1278 
G01 X11.8502 Y23.6381 
G00 Z2.5400  
G00 X39.2914 Y86.7522 
G01 Z-0.2200 F254   
G01 X39.3146 Y86.7522 F508   
G01 X39.3146 Y86.5580 
G01 X39.6796 Y86.1930 
G01 X39.6796 Y86.1602 
G01 X39.2914 Y86.5484 
G01 X39.2914 Y86.7522 
G00 Z2.5400  
G00 X41.5686 Y87.4916 
G01 Z-0.2200 F254   
G01 X41.5686 Y87.2878 F508   
G01 X41.5454 Y87.2878 
G01 X41.5454 Y87.4820 
G01 X40.8920 Y88.1354 
G01 X40.6978 Y88.1354 
G01 X40.6978 Y88.1586 
G01 X40.9016 Y88.1586 
G01 X41.5686 Y87.4916 
G00 Z2.5400  
G00 X41.5686 Y86.5484 
G01 Z-0.2200 F254   
G01 X41.1804 Y86.1602 F508   
G01 X41.1804 Y86.1930 
G01 X41.5454 Y86.5580 
G01 X41.5454 Y86.7522 
G01 X41.5686 Y86.7522 
G01 X41.5686 Y86.5484 
G00 Z2.5400  
G00 X39.2914 Y87.4916 
G01 Z-0.2200 F254   
G01 X39.9584 Y88.1586 F508   
G01 X40.1622 Y88.1586 
G01 X40.1622 Y88.1354 
G01 X39.9680 Y88.1354 
G01 X39.3146 Y87.4820 
G01 X39.3146 Y87.2878 
G01 X39.2914 Y87.2878 
G01 X39.2914 Y87.4916 
G00 Z2.5400  
G00 X11.8711 Y21.9498 
G01 Z-0.2200 F254   
G01 X11.8502 Y22.0819 F508   
G01 X11.8502 Y22.5922 
G01 X11.8734 Y22.5922 
G01 X11.8734 Y22.0674 
G01 X11.9052 Y21.9077 
G01 X11.9496 Y21.8004 
G01 X11.9496 Y21.7497 
G01 X11.9125 Y21.8226 
G01 X11.8711 Y21.9498 
G00 Z2.5400  
G00 X11.7006 Y30.8940 
G01 Z-0.2200 F254   
G01 X11.7777 Y31.0452 F508   
G01 X11.8774 Y31.1825 
G01 X11.9975 Y31.3026 
G01 X12.1348 Y31.4023 
G01 X12.2860 Y31.4794 
G01 X12.4322 Y31.5269 
G01 X12.4322 Y31.5025 
G01 X12.2949 Y31.4579 
G01 X12.1470 Y31.3825 
G01 X12.0126 Y31.2849 
G01 X11.8951 Y31.1674 
G01 X11.7975 Y31.0330 
G01 X11.7221 Y30.8851 
G01 X11.6775 Y30.7478 
G01 X11.6531 Y30.7478 
G01 X11.7006 Y30.8940 
G00 Z2.5400  
G00 X15.5877 Y40.8748 
G01 Z-0.2200 F254   
G01 X15.5106 Y41.0260 F508   
G01 X15.4631 Y41.1722 
G01 X15.4875 Y41.1722 
G01 X15.5321 Y41.0349 
G01 X15.6075 Y40.8870 
G01 X15.7051 Y40.7526 
G01 X15.7596 Y40.6981 
G01 X15.7596 Y40.6653 
G01 X15.6874 Y40.7375 
G01 X15.5877 Y40.8748 
G00 Z2.5400  
G00 X55.4598 Y38.5919 
G01 Z-0.2200 F254   
G01 X55.4389 Y38.4598 F508   
G01 X55.3975 Y38.3326 
G01 X55.3604 Y38.2597 
G01 X55.3604 Y38.3104 
G01 X55.4048 Y38.4177 
G01 X55.4366 Y38.5774 
G01 X55.4366 Y39.1022 
G01 X55.4598 Y39.1022 
G01 X55.4598 Y38.5919 
G00 Z2.5400  
G00 X55.4598 Y27.1619 
G01 Z-0.2200 F254   
G01 X55.4389 Y27.0298 F508   
G01 X55.3975 Y26.9026 
G01 X55.3604 Y26.8297 
G01 X55.3604 Y26.8804 
G01 X55.4048 Y26.9877 
G01 X55.4366 Y27.1474 
G01 X55.4366 Y27.6722 
G01 X55.4598 Y27.6722 
G01 X55.4598 Y27.1619 
G00 Z2.5400  
G00 X55.4598 Y15.7319 
G01 Z-0.2200 F254   
G01 X55.4389 Y15.5998 F508   
G01 X55.3975 Y15.4726 
G01 X55.3604 Y15.3997 
G01 X55.3604 Y15.4504 
G01 X55.4048 Y15.5577 
G01 X55.4366 Y15.7174 
G01 X55.4366 Y16.2422 
G01 X55.4598 Y16.2422 
G01 X55.4598 Y15.7319 
G00 Z2.5400  
G00 X11.8711 Y11.7898 
G01 Z-0.2200 F254   
G01 X11.8502 Y11.9219 F508   
G01 X11.8502 Y12.4322 
G01 X11.8734 Y12.4322 
G01 X11.8734 Y11.9074 
G01 X11.9052 Y11.7477 
G01 X11.9496 Y11.6404 
G01 X11.9496 Y11.5897 
G01 X11.9125 Y11.6626 
G01 X11.8711 Y11.7898 
G00 Z2.5400  
G00 X49.3379 Y68.2825 
G01 Z-0.2200 F254   
G01 X49.5096 Y67.6417 F508   
G01 X49.5096 Y56.8183 
G01 X49.3379 Y56.1775 
G01 X49.0062 Y55.6029 
G01 X48.2849 Y54.8816 
G01 X48.2557 Y54.8112 
G01 X48.2557 Y54.7350 
G01 X48.2849 Y54.6646 
G01 X48.3388 Y54.6107 
G01 X48.3946 Y54.5548 
G01 X48.3946 Y52.1652 
G01 X48.1848 Y51.9553 
G01 X48.1736 Y51.9489 
G01 X48.1581 Y51.9286 
G01 X48.1400 Y51.9105 
G01 X48.1350 Y51.8986 
G01 X48.1272 Y51.8884 
G01 X48.1206 Y51.8637 
G01 X48.1108 Y51.8401 
G01 X48.1108 Y51.8272 
G01 X48.1075 Y51.8148 
G01 X48.1108 Y51.7895 
G01 X48.1108 Y51.7639 
G01 X48.1157 Y51.7520 
G01 X48.1174 Y51.7392 
G01 X48.1302 Y51.7171 
G01 X48.1400 Y51.6935 
G01 X48.1491 Y51.6844 
G01 X48.2079 Y51.5825 
G01 X48.3796 Y50.9417 
G01 X48.3796 Y48.3931 
G01 X48.4088 Y48.3227 
G01 X48.4627 Y48.2688 
G01 X48.5331 Y48.2396 
G01 X52.4017 Y48.2396 
G01 X53.0425 Y48.0679 
G01 X53.6171 Y47.7362 
G01 X53.8596 Y47.4936 
G01 X53.8596 Y40.4296 
G01 X53.8152 Y40.3223 
G01 X53.7834 Y40.1626 
G01 X53.7834 Y38.5774 
G01 X53.8152 Y38.4177 
G01 X53.8596 Y38.3104 
G01 X53.8596 Y28.9996 
G01 X53.8152 Y28.8923 
G01 X53.7834 Y28.7326 
G01 X53.7834 Y27.1474 
G01 X53.8152 Y26.9877 
G01 X53.8596 Y26.8804 
G01 X53.8596 Y17.5696 
G01 X53.8152 Y17.4623 
G01 X53.7834 Y17.3026 
G01 X53.7834 Y15.7174 
G01 X53.8152 Y15.5577 
G01 X53.8596 Y15.4504 
G01 X53.8596 Y9.2008  
G01 X53.0292 Y8.3704  
G01 X45.2163 Y8.3704  
G01 X44.9829 Y8.6038  
G01 X44.9290 Y8.6577  
G01 X44.0802 Y9.5065  
G01 X44.0738 Y9.5177  
G01 X44.0535 Y9.5332  
G01 X44.0354 Y9.5513  
G01 X44.0235 Y9.5562  
G01 X44.0133 Y9.5641  
G01 X43.9886 Y9.5707  
G01 X43.9650 Y9.5805  
G01 X43.9521 Y9.5805  
G01 X43.9397 Y9.5838  
G01 X43.9144 Y9.5805  
G01 X43.8888 Y9.5805  
G01 X43.8769 Y9.5755  
G01 X43.8641 Y9.5739  
G01 X43.8420 Y9.5611  
G01 X43.8184 Y9.5513  
G01 X43.8093 Y9.5422  
G01 X43.7981 Y9.5357  
G01 X43.7826 Y9.5155  
G01 X43.7645 Y9.4974  
G01 X43.7595 Y9.4855  
G01 X43.7517 Y9.4753  
G01 X43.7451 Y9.4506  
G01 X43.7353 Y9.4270  
G01 X43.7353 Y9.4141  
G01 X43.6720 Y9.1777  
G01 X43.3369 Y8.5973  
G01 X43.1100 Y8.3704  
G01 X38.1700 Y8.3704  
G01 X37.9431 Y8.5973  
G01 X37.6080 Y9.1777  
G01 X37.5804 Y9.2808  
G01 X37.5804 Y11.0392 
G01 X37.6080 Y11.1423 
G01 X37.7125 Y11.3233 
G01 X37.7281 Y11.3436 
G01 X37.7314 Y11.3560 
G01 X37.7379 Y11.3672 
G01 X37.7412 Y11.3925 
G01 X37.7478 Y11.4172 
G01 X37.7461 Y11.4300 
G01 X37.7478 Y11.4428 
G01 X37.7412 Y11.4674 
G01 X37.7379 Y11.4928 
G01 X37.7314 Y11.5039 
G01 X37.7281 Y11.5164 
G01 X37.7125 Y11.5367 
G01 X37.6080 Y11.7177 
G01 X37.5804 Y11.8208 
G01 X37.5804 Y13.5792 
G01 X37.6080 Y13.6823 
G01 X37.7125 Y13.8633 
G01 X37.7281 Y13.8836 
G01 X37.7314 Y13.8960 
G01 X37.7379 Y13.9072 
G01 X37.7412 Y13.9325 
G01 X37.7478 Y13.9572 
G01 X37.7461 Y13.9700 
G01 X37.7478 Y13.9828 
G01 X37.7412 Y14.0074 
G01 X37.7379 Y14.0328 
G01 X37.7314 Y14.0440 
G01 X37.7281 Y14.0564 
G01 X37.7125 Y14.0767 
G01 X37.6080 Y14.2577 
G01 X37.5804 Y14.3608 
G01 X37.5804 Y16.1192 
G01 X37.6080 Y16.2223 
G01 X37.7125 Y16.4033 
G01 X37.7281 Y16.4236 
G01 X37.7314 Y16.4360 
G01 X37.7379 Y16.4472 
G01 X37.7412 Y16.4725 
G01 X37.7478 Y16.4972 
G01 X37.7461 Y16.5100 
G01 X37.7478 Y16.5228 
G01 X37.7412 Y16.5474 
G01 X37.7379 Y16.5728 
G01 X37.7314 Y16.5840 
G01 X37.7281 Y16.5964 
G01 X37.7125 Y16.6167 
G01 X37.6080 Y16.7977 
G01 X37.5804 Y16.9008 
G01 X37.5804 Y18.6592 
G01 X37.6080 Y18.7623 
G01 X37.7125 Y18.9433 
G01 X37.7281 Y18.9636 
G01 X37.7314 Y18.9760 
G01 X37.7379 Y18.9872 
G01 X37.7412 Y19.0125 
G01 X37.7478 Y19.0372 
G01 X37.7461 Y19.0500 
G01 X37.7478 Y19.0628 
G01 X37.7412 Y19.0874 
G01 X37.7379 Y19.1128 
G01 X37.7314 Y19.1240 
G01 X37.7281 Y19.1364 
G01 X37.7125 Y19.1567 
G01 X37.6080 Y19.3377 
G01 X37.5804 Y19.4408 
G01 X37.5804 Y21.1992 
G01 X37.6080 Y21.3023 
G01 X37.7125 Y21.4833 
G01 X37.7281 Y21.5036 
G01 X37.7314 Y21.5160 
G01 X37.7379 Y21.5272 
G01 X37.7412 Y21.5525 
G01 X37.7478 Y21.5772 
G01 X37.7461 Y21.5900 
G01 X37.7478 Y21.6028 
G01 X37.7412 Y21.6274 
G01 X37.7379 Y21.6528 
G01 X37.7314 Y21.6639 
G01 X37.7281 Y21.6764 
G01 X37.7125 Y21.6967 
G01 X37.6080 Y21.8777 
G01 X37.5804 Y21.9808 
G01 X37.5804 Y23.7392 
G01 X37.6080 Y23.8423 
G01 X37.7125 Y24.0233 
G01 X37.7281 Y24.0436 
G01 X37.7314 Y24.0560 
G01 X37.7379 Y24.0672 
G01 X37.7412 Y24.0925 
G01 X37.7478 Y24.1172 
G01 X37.7461 Y24.1300 
G01 X37.7478 Y24.1428 
G01 X37.7412 Y24.1674 
G01 X37.7379 Y24.1928 
G01 X37.7314 Y24.2040 
G01 X37.7281 Y24.2164 
G01 X37.7125 Y24.2367 
G01 X37.6080 Y24.4177 
G01 X37.5804 Y24.5208 
G01 X37.5804 Y25.0892 
G01 X39.6808 Y27.1896 
G01 X39.7755 Y27.1896 
G01 X39.9032 Y27.1642 
G01 X41.3768 Y27.1642 
G01 X41.5267 Y27.1940 
G01 X41.6679 Y27.2525 
G01 X41.7949 Y27.3374 
G01 X41.9030 Y27.4455 
G01 X41.9879 Y27.5725 
G01 X42.0464 Y27.7137 
G01 X42.0762 Y27.8636 
G01 X42.0762 Y28.0164 
G01 X42.0464 Y28.1663 
G01 X41.9879 Y28.3075 
G01 X41.9030 Y28.4345 
G01 X41.7949 Y28.5426 
G01 X41.6679 Y28.6275 
G01 X41.5267 Y28.6860 
G01 X41.3768 Y28.7158 
G01 X39.9032 Y28.7158 
G01 X39.7755 Y28.6904 
G01 X39.2961 Y28.6904 
G01 X39.1511 Y28.6616 
G01 X39.0145 Y28.6050 
G01 X38.8916 Y28.5229 
G01 X36.5192 Y26.1504 
G01 X33.8845 Y26.1504 
G01 X33.7568 Y26.1758 
G01 X32.2832 Y26.1758 
G01 X32.1333 Y26.1460 
G01 X31.9921 Y26.0875 
G01 X31.8651 Y26.0026 
G01 X31.7570 Y25.8945 
G01 X31.6721 Y25.7675 
G01 X31.6136 Y25.6263 
G01 X31.5838 Y25.4764 
G01 X31.5838 Y25.3236 
G01 X31.6136 Y25.1737 
G01 X31.6721 Y25.0325 
G01 X31.7570 Y24.9055 
G01 X31.8651 Y24.7974 
G01 X31.9921 Y24.7125 
G01 X32.1333 Y24.6540 
G01 X32.2832 Y24.6242 
G01 X33.7568 Y24.6242 
G01 X33.8845 Y24.6496 
G01 X35.4900 Y24.6496 
G01 X35.7169 Y24.4227 
G01 X36.0520 Y23.8423 
G01 X36.0796 Y23.7392 
G01 X36.0796 Y21.9808 
G01 X36.0520 Y21.8777 
G01 X35.9475 Y21.6967 
G01 X35.9319 Y21.6764 
G01 X35.9286 Y21.6639 
G01 X35.9221 Y21.6528 
G01 X35.9188 Y21.6275 
G01 X35.9122 Y21.6028 
G01 X35.9139 Y21.5900 
G01 X35.9122 Y21.5772 
G01 X35.9188 Y21.5526 
G01 X35.9221 Y21.5272 
G01 X35.9286 Y21.5160 
G01 X35.9319 Y21.5036 
G01 X35.9475 Y21.4833 
G01 X36.0520 Y21.3023 
G01 X36.0796 Y21.1992 
G01 X36.0796 Y19.4408 
G01 X36.0520 Y19.3377 
G01 X35.9475 Y19.1567 
G01 X35.9319 Y19.1364 
G01 X35.9286 Y19.1240 
G01 X35.9221 Y19.1128 
G01 X35.9188 Y19.0875 
G01 X35.9122 Y19.0628 
G01 X35.9139 Y19.0500 
G01 X35.9122 Y19.0372 
G01 X35.9188 Y19.0125 
G01 X35.9221 Y18.9872 
G01 X35.9286 Y18.9760 
G01 X35.9319 Y18.9636 
G01 X35.9475 Y18.9433 
G01 X36.0520 Y18.7623 
G01 X36.0796 Y18.6592 
G01 X36.0796 Y16.9008 
G01 X36.0520 Y16.7977 
G01 X35.9475 Y16.6167 
G01 X35.9319 Y16.5964 
G01 X35.9286 Y16.5840 
G01 X35.9221 Y16.5728 
G01 X35.9188 Y16.5475 
G01 X35.9122 Y16.5228 
G01 X35.9139 Y16.5100 
G01 X35.9122 Y16.4972 
G01 X35.9188 Y16.4725 
G01 X35.9221 Y16.4472 
G01 X35.9286 Y16.4360 
G01 X35.9319 Y16.4236 
G01 X35.9475 Y16.4033 
G01 X36.0520 Y16.2223 
G01 X36.0796 Y16.1192 
G01 X36.0796 Y14.3608 
G01 X36.0520 Y14.2577 
G01 X35.9475 Y14.0767 
G01 X35.9319 Y14.0564 
G01 X35.9286 Y14.0440 
G01 X35.9221 Y14.0328 
G01 X35.9188 Y14.0075 
G01 X35.9122 Y13.9828 
G01 X35.9139 Y13.9700 
G01 X35.9122 Y13.9572 
G01 X35.9188 Y13.9325 
G01 X35.9221 Y13.9072 
G01 X35.9286 Y13.8960 
G01 X35.9319 Y13.8836 
G01 X35.9475 Y13.8633 
G01 X36.0520 Y13.6823 
G01 X36.0796 Y13.5792 
G01 X36.0796 Y11.8208 
G01 X36.0520 Y11.7177 
G01 X35.9475 Y11.5367 
G01 X35.9319 Y11.5164 
G01 X35.9286 Y11.5040 
G01 X35.9221 Y11.4928 
G01 X35.9188 Y11.4675 
G01 X35.9122 Y11.4428 
G01 X35.9139 Y11.4300 
G01 X35.9122 Y11.4172 
G01 X35.9188 Y11.3925 
G01 X35.9221 Y11.3672 
G01 X35.9286 Y11.3560 
G01 X35.9319 Y11.3436 
G01 X35.9475 Y11.3233 
G01 X36.0520 Y11.1423 
G01 X36.0796 Y11.0392 
G01 X36.0796 Y9.2808  
G01 X36.0520 Y9.1777  
G01 X35.7169 Y8.5973  
G01 X35.4900 Y8.3704  
G01 X30.5500 Y8.3704  
G01 X30.3231 Y8.5973  
G01 X29.9880 Y9.1777  
G01 X29.8261 Y9.7821  
G01 X29.7946 Y9.8232  
G01 X29.7797 Y9.8426  
G01 X29.7625 Y9.8525  
G01 X29.7137 Y9.8807  
G01 X29.6381 Y9.8907  
G01 X29.6065 Y9.8822  
G01 X29.5818 Y9.8756  
G01 X28.8382 Y9.8756  
G01 X28.1198 Y10.0681 
G01 X27.4758 Y10.4399 
G01 X26.9499 Y10.9658 
G01 X26.5781 Y11.6098 
G01 X26.3856 Y12.3282 
G01 X26.3856 Y13.0718 
G01 X26.5781 Y13.7902 
G01 X26.6521 Y13.9184 
G01 X26.6612 Y13.9275 
G01 X26.6710 Y13.9511 
G01 X26.6838 Y13.9733 
G01 X26.6855 Y13.9860 
G01 X26.6904 Y13.9979 
G01 X26.6904 Y14.0235 
G01 X26.6937 Y14.0488 
G01 X26.6904 Y14.0613 
G01 X26.6904 Y16.2742 
G01 X26.6937 Y16.2995 
G01 X26.6904 Y16.3119 
G01 X26.6904 Y16.3248 
G01 X26.6806 Y16.3484 
G01 X26.6740 Y16.3731 
G01 X26.6662 Y16.3833 
G01 X26.6612 Y16.3952 
G01 X26.6432 Y16.4133 
G01 X26.6276 Y16.4336 
G01 X26.6164 Y16.4400 
G01 X26.6073 Y16.4491 
G01 X26.5837 Y16.4589 
G01 X26.5616 Y16.4717 
G01 X26.5488 Y16.4734 
G01 X26.5369 Y16.4783 
G01 X26.5114 Y16.4783 
G01 X26.4860 Y16.4816 
G01 X26.4736 Y16.4783 
G01 X26.4607 Y16.4783 
G01 X26.4371 Y16.4685 
G01 X26.2620 Y16.4216 
G01 X26.2491 Y16.4216 
G01 X26.2255 Y16.4118 
G01 X26.2008 Y16.4052 
G01 X26.1906 Y16.3974 
G01 X26.1787 Y16.3924 
G01 X26.1606 Y16.3744 
G01 X26.1404 Y16.3588 
G01 X26.1339 Y16.3477 
G01 X25.5501 Y15.7638 
G01 X24.9755 Y15.4321 
G01 X24.3347 Y15.2604 
G01 X23.4483 Y15.2604 
G01 X23.3779 Y15.2312 
G01 X23.3240 Y15.1773 
G01 X23.2949 Y15.1069 
G01 X23.2949 Y15.0307 
G01 X23.3240 Y14.9603 
G01 X23.3779 Y14.9064 
G01 X23.8501 Y14.4342 
G01 X24.2219 Y13.7902 
G01 X24.4144 Y13.0718 
G01 X24.4144 Y12.3282 
G01 X24.2219 Y11.6098 
G01 X23.8501 Y10.9658 
G01 X23.3242 Y10.4399 
G01 X22.6802 Y10.0681 
G01 X21.9618 Y9.8756  
G01 X21.2182 Y9.8756  
G01 X20.4998 Y10.0681 
G01 X20.3716 Y10.1421 
G01 X20.3625 Y10.1512 
G01 X20.3389 Y10.1610 
G01 X20.3167 Y10.1738 
G01 X20.3040 Y10.1755 
G01 X20.2920 Y10.1804 
G01 X20.2665 Y10.1804 
G01 X20.2412 Y10.1837 
G01 X20.2287 Y10.1804 
G01 X17.1439 Y10.1804 
G01 X17.0734 Y10.1512 
G01 X17.0195 Y10.0973 
G01 X16.8339 Y9.9116  
G01 X16.2419 Y9.5699  
G01 X15.5818 Y9.3930  
G01 X14.8982 Y9.3930  
G01 X14.2381 Y9.5699  
G01 X13.6461 Y9.9116  
G01 X13.4504 Y10.1074 
G01 X13.4504 Y11.6404 
G01 X13.4948 Y11.7477 
G01 X13.5266 Y11.9074 
G01 X13.5266 Y13.4926 
G01 X13.4948 Y13.6523 
G01 X13.4504 Y13.7596 
G01 X13.4504 Y15.2926 
G01 X13.6461 Y15.4884 
G01 X14.2381 Y15.8301 
G01 X14.8982 Y16.0070 
G01 X15.5818 Y16.0070 
G01 X16.2419 Y15.8301 
G01 X16.8339 Y15.4884 
G01 X17.0195 Y15.3027 
G01 X17.0691 Y15.2532 
G01 X17.0734 Y15.2488 
G01 X17.1439 Y15.2196 
G01 X18.6592 Y15.2196 
G01 X18.7296 Y15.2488 
G01 X18.7835 Y15.3027 
G01 X18.8127 Y15.3731 
G01 X18.8127 Y15.4493 
G01 X18.7835 Y15.5197 
G01 X18.7296 Y15.5736 
G01 X17.6353 Y16.6680 
G01 X17.6353 Y17.8441 
G01 X18.2584 Y18.4671 
G01 X18.3629 Y18.5716 
G01 X18.4450 Y18.6945 
G01 X18.5016 Y18.8311 
G01 X18.5304 Y18.9761 
G01 X18.5304 Y19.7871 
G01 X19.2080 Y20.4647 
G01 X19.2278 Y20.4647 
G01 X19.2982 Y20.4939 
G01 X19.3521 Y20.5478 
G01 X19.3813 Y20.6182 
G01 X19.3813 Y20.7088 
G01 X19.5121 Y20.8396 
G01 X19.5449 Y20.8396 
G01 X19.4045 Y20.6992 
G01 X19.4045 Y19.9408 
G01 X19.9408 Y19.4045 
G01 X20.6992 Y19.4045 
G01 X21.2355 Y19.9408 
G01 X21.2355 Y20.6992 
G01 X21.0704 Y20.8643 
G01 X21.0704 Y20.8971 
G01 X21.2587 Y20.7088 
G01 X21.2587 Y20.6182 
G01 X21.2879 Y20.5478 
G01 X21.3418 Y20.4939 
G01 X21.4122 Y20.4647 
G01 X21.4320 Y20.4647 
G01 X21.5141 Y20.3827 
G01 X21.5663 Y20.3305 
G01 X21.6384 Y20.2996 
G01 X22.5941 Y20.2996 
G01 X22.6194 Y20.2963 
G01 X22.6319 Y20.2996 
G01 X22.6448 Y20.2996 
G01 X22.6684 Y20.3094 
G01 X22.6931 Y20.3160 
G01 X22.7033 Y20.3238 
G01 X22.7152 Y20.3288 
G01 X22.7333 Y20.3468 
G01 X22.7535 Y20.3624 
G01 X22.7600 Y20.3736 
G01 X22.7691 Y20.3827 
G01 X22.7789 Y20.4063 
G01 X23.0917 Y20.9482 
G01 X23.5711 Y21.4276 
G01 X23.6161 Y21.4726 
G01 X23.6250 Y21.4815 
G01 X23.6542 Y21.5519 
G01 X23.6542 Y21.6281 
G01 X23.6259 Y21.6965 
G01 X23.5711 Y21.7524 
G01 X23.0917 Y22.2318 
G01 X22.7789 Y22.7737 
G01 X22.7691 Y22.7973 
G01 X22.7600 Y22.8064 
G01 X22.7535 Y22.8176 
G01 X22.7333 Y22.8332 
G01 X22.7152 Y22.8512 
G01 X22.7033 Y22.8562 
G01 X22.6931 Y22.8640 
G01 X22.6684 Y22.8706 
G01 X22.6448 Y22.8804 
G01 X22.6319 Y22.8804 
G01 X22.6194 Y22.8837 
G01 X22.5941 Y22.8804 
G01 X21.6384 Y22.8804 
G01 X21.5680 Y22.8512 
G01 X21.5141 Y22.7973 
G01 X21.4320 Y22.7153 
G01 X21.4122 Y22.7153 
G01 X21.3418 Y22.6861 
G01 X21.2879 Y22.6322 
G01 X21.2587 Y22.5618 
G01 X21.2587 Y22.4712 
G01 X21.0704 Y22.2829 
G01 X21.0704 Y22.3157 
G01 X21.2355 Y22.4808 
G01 X21.2355 Y23.2392 
G01 X20.6992 Y23.7755 
G01 X19.9408 Y23.7755 
G01 X19.4045 Y23.2392 
G01 X19.4045 Y22.4808 
G01 X19.5449 Y22.3404 
G01 X19.5121 Y22.3404 
G01 X19.3813 Y22.4712 
G01 X19.3813 Y22.5618 
G01 X19.3521 Y22.6322 
G01 X19.2982 Y22.6861 
G01 X19.2278 Y22.7153 
G01 X19.2080 Y22.7153 
G01 X18.1898 Y23.7334 
G01 X18.1537 Y23.7695 
G01 X18.1359 Y23.7873 
G01 X18.0655 Y23.8165 
G01 X17.9893 Y23.8165 
G01 X17.9209 Y23.7882 
G01 X17.8650 Y23.7334 
G01 X17.8358 Y23.6630 
G01 X17.8358 Y22.3404 
G01 X17.7061 Y22.3404 
G01 X17.5611 Y22.3116 
G01 X17.4245 Y22.2550 
G01 X17.3016 Y22.1729 
G01 X17.1971 Y22.0684 
G01 X17.1150 Y21.9454 
G01 X17.0584 Y21.8089 
G01 X17.0296 Y21.6639 
G01 X17.0296 Y20.2674 
G01 X16.8339 Y20.0716 
G01 X16.2419 Y19.7299 
G01 X15.5818 Y19.5530 
G01 X14.8982 Y19.5530 
G01 X14.2381 Y19.7299 
G01 X13.6461 Y20.0716 
G01 X13.4504 Y20.2674 
G01 X13.4504 Y21.8004 
G01 X13.4948 Y21.9077 
G01 X13.5266 Y22.0674 
G01 X13.5266 Y23.6526 
G01 X13.4948 Y23.8123 
G01 X13.4504 Y23.9196 
G01 X13.4504 Y29.7381 
G01 X13.5049 Y29.7926 
G01 X13.6025 Y29.9270 
G01 X13.6779 Y30.0749 
G01 X13.7225 Y30.2122 
G01 X13.8111 Y30.2122 
G01 X13.8157 Y30.2043 
G01 X13.8239 Y30.1980 
G01 X13.8300 Y30.1896 
G01 X13.8539 Y30.1750 
G01 X13.8762 Y30.1579 
G01 X13.8861 Y30.1552 
G01 X13.8949 Y30.1498 
G01 X13.9227 Y30.1454 
G01 X13.9498 Y30.1382 
G01 X13.9600 Y30.1395 
G01 X13.9702 Y30.1379 
G01 X13.9975 Y30.1444 
G01 X14.0254 Y30.1481 
G01 X14.0343 Y30.1533 
G01 X14.0443 Y30.1557 
G01 X14.0671 Y30.1722 
G01 X14.2675 Y30.2879 
G01 X14.9083 Y30.4596 
G01 X17.3421 Y30.4596 
G01 X17.4125 Y30.4888 
G01 X17.4664 Y30.5427 
G01 X17.4956 Y30.6131 
G01 X17.4956 Y30.8518 
G01 X17.6881 Y31.5702 
G01 X17.7621 Y31.6984 
G01 X17.7712 Y31.7075 
G01 X17.7810 Y31.7311 
G01 X17.7938 Y31.7533 
G01 X17.7955 Y31.7660 
G01 X17.8004 Y31.7779 
G01 X17.8004 Y31.8035 
G01 X17.8037 Y31.8288 
G01 X17.8004 Y31.8413 
G01 X17.8004 Y33.3517 
G01 X17.9721 Y33.9925 
G01 X18.0639 Y34.1515 
G01 X18.0795 Y34.1718 
G01 X18.0828 Y34.1842 
G01 X18.0892 Y34.1954 
G01 X18.0926 Y34.2207 
G01 X18.0992 Y34.2454 
G01 X18.0975 Y34.2582 
G01 X18.0992 Y34.2710 
G01 X18.0926 Y34.2957 
G01 X18.0892 Y34.3210 
G01 X18.0828 Y34.3322 
G01 X18.0795 Y34.3446 
G01 X18.0639 Y34.3649 
G01 X17.9011 Y34.6469 
G01 X17.7242 Y35.3070 
G01 X17.7242 Y37.4130 
G01 X17.7906 Y37.6608 
G01 X17.8004 Y37.6844 
G01 X17.8004 Y37.6973 
G01 X17.8037 Y37.7098 
G01 X17.8004 Y37.7351 
G01 X17.8004 Y40.7916 
G01 X17.8028 Y40.8221 
G01 X17.8004 Y40.8295 
G01 X17.8004 Y40.8372 
G01 X17.7887 Y40.8655 
G01 X17.7792 Y40.8946 
G01 X17.7742 Y40.9005 
G01 X17.7712 Y40.9076 
G01 X17.7496 Y40.9293 
G01 X17.7297 Y40.9525 
G01 X17.7228 Y40.9560 
G01 X17.7173 Y40.9615 
G01 X17.6891 Y40.9732 
G01 X17.6618 Y40.9871 
G01 X17.6541 Y40.9877 
G01 X17.6469 Y40.9907 
G01 X17.6163 Y40.9907 
G01 X17.5858 Y40.9931 
G01 X17.5784 Y40.9907 
G01 X17.5707 Y40.9907 
G01 X17.5424 Y40.9790 
G01 X17.5133 Y40.9695 
G01 X17.5074 Y40.9645 
G01 X17.5003 Y40.9615 
G01 X17.4786 Y40.9399 
G01 X17.4554 Y40.9200 
G01 X17.4519 Y40.9131 
G01 X17.4464 Y40.9076 
G01 X17.4347 Y40.8794 
G01 X17.4323 Y40.8748 
G01 X17.3326 Y40.7375 
G01 X17.2604 Y40.6653 
G01 X17.2604 Y40.6981 
G01 X17.3149 Y40.7526 
G01 X17.4125 Y40.8870 
G01 X17.4879 Y41.0349 
G01 X17.5392 Y41.1929 
G01 X17.5652 Y41.3570 
G01 X17.5652 Y41.5230 
G01 X17.5392 Y41.6871 
G01 X17.4879 Y41.8451 
G01 X17.4125 Y41.9930 
G01 X17.3149 Y42.1274 
G01 X17.2604 Y42.1819 
G01 X17.2604 Y42.2147 
G01 X17.3326 Y42.1425 
G01 X17.4323 Y42.0052 
G01 X17.4347 Y42.0006 
G01 X17.4464 Y41.9724 
G01 X17.4519 Y41.9669 
G01 X17.4554 Y41.9600 
G01 X17.4786 Y41.9401 
G01 X17.5003 Y41.9185 
G01 X17.5074 Y41.9155 
G01 X17.5133 Y41.9105 
G01 X17.5424 Y41.9010 
G01 X17.5707 Y41.8893 
G01 X17.5784 Y41.8893 
G01 X17.5858 Y41.8869 
G01 X17.6163 Y41.8893 
G01 X17.6469 Y41.8893 
G01 X17.6541 Y41.8923 
G01 X17.6618 Y41.8929 
G01 X17.6891 Y41.9068 
G01 X17.7173 Y41.9185 
G01 X17.7228 Y41.9240 
G01 X17.7297 Y41.9275 
G01 X17.7496 Y41.9507 
G01 X17.7712 Y41.9724 
G01 X17.7742 Y41.9795 
G01 X17.7792 Y41.9854 
G01 X17.7887 Y42.0145 
G01 X17.8004 Y42.0428 
G01 X17.8004 Y42.0505 
G01 X17.8028 Y42.0579 
G01 X17.8004 Y42.0884 
G01 X17.8004 Y44.3449 
G01 X17.8037 Y44.3702 
G01 X17.8004 Y44.3827 
G01 X17.8004 Y44.3956 
G01 X17.7906 Y44.4192 
G01 X17.7242 Y44.6670 
G01 X17.7242 Y46.7730 
G01 X17.7906 Y47.0208 
G01 X17.8004 Y47.0444 
G01 X17.8004 Y47.0573 
G01 X17.8037 Y47.0698 
G01 X17.8004 Y47.0951 
G01 X17.8004 Y49.8617 
G01 X17.9721 Y50.5025 
G01 X18.3038 Y51.0771 
G01 X18.8177 Y51.5910 
G01 X18.9912 Y51.7645 
G01 X19.0204 Y51.8349 
G01 X19.0204 Y52.3783 
G01 X19.0237 Y52.3908 
G01 X19.0204 Y52.4161 
G01 X19.0204 Y52.4416 
G01 X19.0155 Y52.4535 
G01 X19.0138 Y52.4663 
G01 X19.0010 Y52.4885 
G01 X18.9912 Y52.5121 
G01 X18.9821 Y52.5212 
G01 X18.9217 Y52.6258 
G01 X18.9193 Y52.6359 
G01 X18.9028 Y52.6586 
G01 X18.8887 Y52.6829 
G01 X18.8805 Y52.6892 
G01 X18.8745 Y52.6976 
G01 X18.8505 Y52.7122 
G01 X18.8283 Y52.7293 
G01 X18.8183 Y52.7320 
G01 X18.8095 Y52.7374 
G01 X18.7818 Y52.7418 
G01 X18.7547 Y52.7490 
G01 X18.7444 Y52.7477 
G01 X18.7334 Y52.7494 
G01 X18.5629 Y52.8048 
G01 X18.4032 Y52.8862 
G01 X18.2583 Y52.9915 
G01 X18.1402 Y53.1096 
G01 X18.1730 Y53.1096 
G01 X18.2734 Y53.0092 
G01 X18.4154 Y52.9060 
G01 X18.5718 Y52.8263 
G01 X18.7388 Y52.7721 
G01 X18.9122 Y52.7446 
G01 X19.0878 Y52.7446 
G01 X19.2612 Y52.7721 
G01 X19.4282 Y52.8263 
G01 X19.5846 Y52.9060 
G01 X19.7266 Y53.0092 
G01 X19.8508 Y53.1334 
G01 X19.9540 Y53.2754 
G01 X20.0337 Y53.4318 
G01 X20.0879 Y53.5988 
G01 X20.1154 Y53.7722 
G01 X20.1154 Y53.9478 
G01 X20.0879 Y54.1212 
G01 X20.0337 Y54.2882 
G01 X19.9540 Y54.4446 
G01 X19.8508 Y54.5866 
G01 X19.7504 Y54.6870 
G01 X19.7504 Y57.4392 
G01 X22.5708 Y60.2596 
G01 X29.9492 Y60.2596 
G01 X33.5096 Y56.6992 
G01 X33.5096 Y55.3361 
G01 X33.5384 Y55.1911 
G01 X33.5950 Y55.0546 
G01 X33.6771 Y54.9316 
G01 X34.3796 Y54.2292 
G01 X34.3796 Y53.6831 
G01 X34.4088 Y53.6127 
G01 X34.4627 Y53.5588 
G01 X34.5331 Y53.5296 
G01 X35.0792 Y53.5296 
G01 X35.7271 Y52.8816 
G01 X35.8316 Y52.7771 
G01 X35.9546 Y52.6950 
G01 X36.0911 Y52.6384 
G01 X36.2361 Y52.6096 
G01 X39.6030 Y52.6096 
G01 X39.9680 Y52.2446 
G01 X40.8920 Y52.2446 
G01 X41.5454 Y52.8980 
G01 X41.5454 Y53.8220 
G01 X41.1804 Y54.1870 
G01 X41.1804 Y54.2198 
G01 X41.5686 Y53.8316 
G01 X41.5686 Y53.6831 
G01 X41.5978 Y53.6127 
G01 X41.6517 Y53.5588 
G01 X41.7221 Y53.5296 
G01 X42.4719 Y53.5296 
G01 X42.5423 Y53.5588 
G01 X42.5962 Y53.6127 
G01 X42.6254 Y53.6831 
G01 X42.6254 Y54.5548 
G01 X42.9073 Y54.8368 
G01 X42.9548 Y54.8842 
G01 X42.9612 Y54.8907 
G01 X42.9904 Y54.9611 
G01 X42.9904 Y56.0017 
G01 X43.1621 Y56.6425 
G01 X43.4938 Y57.2171 
G01 X44.0077 Y57.7310 
G01 X44.4412 Y58.1645 
G01 X44.4704 Y58.2349 
G01 X44.4704 Y64.6369 
G01 X44.4412 Y64.7073 
G01 X44.3873 Y64.7612 
G01 X44.3169 Y64.7904 
G01 X44.2583 Y64.7904 
G01 X44.2463 Y64.7936 
G01 X44.2227 Y64.8034 
G01 X44.2098 Y64.8034 
G01 X44.1973 Y64.8067 
G01 X44.1720 Y64.8034 
G01 X43.3396 Y64.8034 
G01 X42.6664 Y64.9838 
G01 X42.0629 Y65.3322 
G01 X41.5702 Y65.8249 
G01 X41.2218 Y66.4284 
G01 X41.1804 Y66.5828 
G01 X41.1804 Y68.3172 
G01 X41.2218 Y68.4715 
G01 X41.5702 Y69.0751 
G01 X41.8617 Y69.3666 
G01 X43.0706 Y69.3666 
G01 X43.1287 Y69.3085 
G01 X43.2724 Y69.2125 
G01 X43.4321 Y69.1463 
G01 X43.6016 Y69.1126 
G01 X45.2984 Y69.1126 
G01 X45.4679 Y69.1463 
G01 X45.6276 Y69.2125 
G01 X45.6682 Y69.2396 
G01 X48.6236 Y69.2396 
G01 X49.0062 Y68.8571 
G01 X49.3379 Y68.2825 
G00 Z2.5400  
G00 X20.6992 Y18.6955 
G01 Z-0.2200 F254   
G01 X19.9408 Y18.6955 F508   
G01 X19.4045 Y18.1592 
G01 X19.4045 Y17.4008 
G01 X19.9408 Y16.8645 
G01 X20.6992 Y16.8645 
G01 X20.8643 Y17.0296 
G01 X24.0769 Y17.0296 
G01 X24.2219 Y17.0584 
G01 X24.3584 Y17.1150 
G01 X24.4814 Y17.1971 
G01 X25.3458 Y18.0616 
G01 X25.4878 Y18.0616 
G01 X25.6612 Y18.0891 
G01 X25.8282 Y18.1433 
G01 X25.9846 Y18.2230 
G01 X26.1266 Y18.3262 
G01 X26.2508 Y18.4504 
G01 X26.3540 Y18.5924 
G01 X26.4337 Y18.7488 
G01 X26.4879 Y18.9158 
G01 X26.5154 Y19.0892 
G01 X26.5154 Y19.2312 
G01 X26.8538 Y19.5696 
G01 X32.1555 Y19.5696 
G01 X32.2832 Y19.5442 
G01 X33.7568 Y19.5442 
G01 X33.9067 Y19.5740 
G01 X34.0479 Y19.6325 
G01 X34.1749 Y19.7174 
G01 X34.2830 Y19.8255 
G01 X34.3679 Y19.9525 
G01 X34.4264 Y20.0937 
G01 X34.4562 Y20.2436 
G01 X34.4562 Y20.3964 
G01 X34.4264 Y20.5463 
G01 X34.3679 Y20.6875 
G01 X34.2830 Y20.8145 
G01 X34.1749 Y20.9226 
G01 X34.0479 Y21.0075 
G01 X33.9067 Y21.0660 
G01 X33.7568 Y21.0958 
G01 X32.2832 Y21.0958 
G01 X32.1555 Y21.0704 
G01 X26.4691 Y21.0704 
G01 X26.3241 Y21.0416 
G01 X26.1876 Y20.9850 
G01 X26.0646 Y20.9029 
G01 X25.9601 Y20.7983 
G01 X25.4542 Y20.2924 
G01 X25.3122 Y20.2924 
G01 X25.1388 Y20.2649 
G01 X24.9718 Y20.2107 
G01 X24.8154 Y20.1310 
G01 X24.6734 Y20.0278 
G01 X24.5492 Y19.9036 
G01 X24.4460 Y19.7616 
G01 X24.3663 Y19.6052 
G01 X24.3121 Y19.4382 
G01 X24.2846 Y19.2648 
G01 X24.2846 Y19.1228 
G01 X23.6922 Y18.5304 
G01 X20.8643 Y18.5304 
G01 X20.6992 Y18.6955 
G00 Z2.5400  
G00 X20.6992 Y26.3155 
G01 Z-0.2200 F254   
G01 X19.9408 Y26.3155 F508   
G01 X19.4045 Y25.7792 
G01 X19.4045 Y25.0208 
G01 X19.9408 Y24.4845 
G01 X20.6992 Y24.4845 
G01 X20.8643 Y24.6496 
G01 X23.6922 Y24.6496 
G01 X24.2846 Y24.0572 
G01 X24.2846 Y23.9152 
G01 X24.3121 Y23.7418 
G01 X24.3663 Y23.5748 
G01 X24.4460 Y23.4184 
G01 X24.5492 Y23.2764 
G01 X24.6734 Y23.1522 
G01 X24.8154 Y23.0490 
G01 X24.9718 Y22.9693 
G01 X25.1388 Y22.9151 
G01 X25.3122 Y22.8876 
G01 X25.4542 Y22.8876 
G01 X25.9601 Y22.3816 
G01 X26.0646 Y22.2771 
G01 X26.1876 Y22.1950 
G01 X26.3241 Y22.1384 
G01 X26.4691 Y22.1096 
G01 X32.1555 Y22.1096 
G01 X32.2832 Y22.0842 
G01 X33.7568 Y22.0842 
G01 X33.9067 Y22.1140 
G01 X34.0479 Y22.1725 
G01 X34.1749 Y22.2574 
G01 X34.2830 Y22.3655 
G01 X34.3679 Y22.4925 
G01 X34.4264 Y22.6337 
G01 X34.4562 Y22.7836 
G01 X34.4562 Y22.9364 
G01 X34.4264 Y23.0863 
G01 X34.3679 Y23.2275 
G01 X34.2830 Y23.3545 
G01 X34.1749 Y23.4626 
G01 X34.0479 Y23.5475 
G01 X33.9067 Y23.6060 
G01 X33.7568 Y23.6358 
G01 X32.2832 Y23.6358 
G01 X32.1555 Y23.6104 
G01 X26.8538 Y23.6104 
G01 X26.5154 Y23.9488 
G01 X26.5154 Y24.0908 
G01 X26.4879 Y24.2642 
G01 X26.4337 Y24.4312 
G01 X26.3540 Y24.5876 
G01 X26.2508 Y24.7296 
G01 X26.1266 Y24.8538 
G01 X25.9846 Y24.9570 
G01 X25.8282 Y25.0367 
G01 X25.6612 Y25.0909 
G01 X25.4878 Y25.1184 
G01 X25.3458 Y25.1184 
G01 X24.4814 Y25.9829 
G01 X24.3584 Y26.0650 
G01 X24.2219 Y26.1216 
G01 X24.0769 Y26.1504 
G01 X20.8643 Y26.1504 
G01 X20.6992 Y26.3155 
G00 Z2.5400  
G00 X41.3768 Y41.4158 
G01 Z-0.2200 F254   
G01 X39.9032 Y41.4158 F508   
G01 X39.7533 Y41.3860 
G01 X39.6121 Y41.3275 
G01 X39.4851 Y41.2426 
G01 X39.3770 Y41.1345 
G01 X39.2921 Y41.0075 
G01 X39.2336 Y40.8663 
G01 X39.2038 Y40.7164 
G01 X39.2038 Y40.5636 
G01 X39.2336 Y40.4137 
G01 X39.2921 Y40.2725 
G01 X39.3770 Y40.1455 
G01 X39.4851 Y40.0374 
G01 X39.6121 Y39.9525 
G01 X39.7533 Y39.8940 
G01 X39.9032 Y39.8642 
G01 X41.3768 Y39.8642 
G01 X41.5045 Y39.8896 
G01 X46.1634 Y39.8896 
G01 X46.1634 Y38.5774 
G01 X46.1952 Y38.4177 
G01 X46.2575 Y38.2673 
G01 X46.3479 Y38.1319 
G01 X46.4631 Y38.0167 
G01 X46.5985 Y37.9263 
G01 X46.7489 Y37.8640 
G01 X46.9086 Y37.8322 
G01 X47.0714 Y37.8322 
G01 X47.2311 Y37.8640 
G01 X47.3815 Y37.9263 
G01 X47.5169 Y38.0167 
G01 X47.6321 Y38.1319 
G01 X47.7225 Y38.2673 
G01 X47.7848 Y38.4177 
G01 X47.8166 Y38.5774 
G01 X47.8166 Y40.1626 
G01 X47.7848 Y40.3223 
G01 X47.7404 Y40.4296 
G01 X47.7404 Y40.7139 
G01 X47.7116 Y40.8589 
G01 X47.6550 Y40.9954 
G01 X47.5729 Y41.1183 
G01 X47.4684 Y41.2229 
G01 X47.3454 Y41.3050 
G01 X47.2089 Y41.3616 
G01 X47.0639 Y41.3904 
G01 X41.5045 Y41.3904 
G01 X41.3768 Y41.4158 
G00 Z2.5400  
G00 X41.3768 Y38.8758 
G01 Z-0.2200 F254   
G01 X39.9032 Y38.8758 F508   
G01 X39.7533 Y38.8460 
G01 X39.6121 Y38.7875 
G01 X39.4851 Y38.7026 
G01 X39.3770 Y38.5945 
G01 X39.2921 Y38.4675 
G01 X39.2336 Y38.3263 
G01 X39.2038 Y38.1764 
G01 X39.2038 Y38.0236 
G01 X39.2336 Y37.8737 
G01 X39.2921 Y37.7325 
G01 X39.3770 Y37.6055 
G01 X39.4851 Y37.4974 
G01 X39.6121 Y37.4125 
G01 X39.7533 Y37.3540 
G01 X39.9032 Y37.3242 
G01 X41.3768 Y37.3242 
G01 X41.5045 Y37.3496 
G01 X43.0488 Y37.3496 
G01 X48.9066 Y31.4918 
G01 X48.9066 Y29.1968 
G01 X48.8879 Y29.1781 
G01 X48.7975 Y29.0427 
G01 X48.7352 Y28.8923 
G01 X48.7034 Y28.7326 
G01 X48.7034 Y27.1474 
G01 X48.7352 Y26.9877 
G01 X48.7975 Y26.8373 
G01 X48.8879 Y26.7019 
G01 X49.0031 Y26.5867 
G01 X49.1385 Y26.4963 
G01 X49.2889 Y26.4340 
G01 X49.4486 Y26.4022 
G01 X49.6114 Y26.4022 
G01 X49.7711 Y26.4340 
G01 X49.9215 Y26.4963 
G01 X50.0569 Y26.5867 
G01 X50.1721 Y26.7019 
G01 X50.2625 Y26.8373 
G01 X50.3248 Y26.9877 
G01 X50.3566 Y27.1474 
G01 X50.3566 Y28.7326 
G01 X50.3248 Y28.8923 
G01 X50.2625 Y29.0427 
G01 X50.1721 Y29.1781 
G01 X50.1534 Y29.1968 
G01 X50.1534 Y31.8114 
G01 X50.1294 Y31.9318 
G01 X50.0824 Y32.0453 
G01 X50.0142 Y32.1474 
G01 X49.9274 Y32.2342 
G01 X43.9162 Y38.2455 
G01 X43.9016 Y38.3189 
G01 X43.8450 Y38.4554 
G01 X43.7629 Y38.5784 
G01 X43.6583 Y38.6829 
G01 X43.5354 Y38.7650 
G01 X43.3989 Y38.8216 
G01 X43.2539 Y38.8504 
G01 X41.5045 Y38.8504 
G01 X41.3768 Y38.8758 
G00 Z2.5400  
G00 X41.3768 Y36.3358 
G01 Z-0.2200 F254   
G01 X39.9032 Y36.3358 F508   
G01 X39.7533 Y36.3060 
G01 X39.6121 Y36.2475 
G01 X39.4851 Y36.1626 
G01 X39.3770 Y36.0545 
G01 X39.2921 Y35.9275 
G01 X39.2336 Y35.7863 
G01 X39.2038 Y35.6364 
G01 X39.2038 Y35.4836 
G01 X39.2336 Y35.3337 
G01 X39.2921 Y35.1925 
G01 X39.3770 Y35.0655 
G01 X39.4851 Y34.9574 
G01 X39.6121 Y34.8725 
G01 X39.7533 Y34.8140 
G01 X39.9032 Y34.7842 
G01 X41.3768 Y34.7842 
G01 X41.5045 Y34.8096 
G01 X41.5992 Y34.8096 
G01 X46.2396 Y30.1692 
G01 X46.2396 Y25.3261 
G01 X46.2684 Y25.1811 
G01 X46.3250 Y25.0446 
G01 X46.4071 Y24.9216 
G01 X48.7796 Y22.5492 
G01 X48.7796 Y17.5696 
G01 X48.7352 Y17.4623 
G01 X48.7034 Y17.3026 
G01 X48.7034 Y15.7174 
G01 X48.7352 Y15.5577 
G01 X48.7975 Y15.4073 
G01 X48.8879 Y15.2719 
G01 X49.0031 Y15.1567 
G01 X49.1385 Y15.0663 
G01 X49.2889 Y15.0040 
G01 X49.4486 Y14.9722 
G01 X49.6114 Y14.9722 
G01 X49.7711 Y15.0040 
G01 X49.9215 Y15.0663 
G01 X50.0569 Y15.1567 
G01 X50.1721 Y15.2719 
G01 X50.2625 Y15.4073 
G01 X50.3248 Y15.5577 
G01 X50.3566 Y15.7174 
G01 X50.3566 Y17.3026 
G01 X50.3248 Y17.4623 
G01 X50.2804 Y17.5696 
G01 X50.2804 Y22.9339 
G01 X50.2516 Y23.0789 
G01 X50.1950 Y23.2154 
G01 X50.1129 Y23.3384 
G01 X47.7404 Y25.7108 
G01 X47.7404 Y30.5539 
G01 X47.7116 Y30.6989 
G01 X47.6550 Y30.8354 
G01 X47.5729 Y30.9584 
G01 X47.4684 Y31.0629 
G01 X42.4929 Y36.0384 
G01 X42.3884 Y36.1429 
G01 X42.2654 Y36.2250 
G01 X42.1289 Y36.2816 
G01 X41.9839 Y36.3104 
G01 X41.5045 Y36.3104 
G01 X41.3768 Y36.3358 
G00 Z2.5400  
G00 X41.3768 Y33.7958 
G01 Z-0.2200 F254   
G01 X39.9032 Y33.7958 F508   
G01 X39.7533 Y33.7660 
G01 X39.6121 Y33.7075 
G01 X39.4851 Y33.6226 
G01 X39.3770 Y33.5145 
G01 X39.2921 Y33.3875 
G01 X39.2336 Y33.2463 
G01 X39.2038 Y33.0964 
G01 X39.2038 Y32.9436 
G01 X39.2336 Y32.7937 
G01 X39.2921 Y32.6525 
G01 X39.3770 Y32.5255 
G01 X39.4851 Y32.4174 
G01 X39.6121 Y32.3325 
G01 X39.7533 Y32.2740 
G01 X39.9032 Y32.2442 
G01 X41.3768 Y32.2442 
G01 X41.5267 Y32.2740 
G01 X41.6679 Y32.3325 
G01 X41.7949 Y32.4174 
G01 X41.9030 Y32.5255 
G01 X41.9879 Y32.6525 
G01 X42.0464 Y32.7937 
G01 X42.0762 Y32.9436 
G01 X42.0762 Y33.0964 
G01 X42.0464 Y33.2463 
G01 X41.9879 Y33.3875 
G01 X41.9030 Y33.5145 
G01 X41.7949 Y33.6226 
G01 X41.6679 Y33.7075 
G01 X41.5267 Y33.7660 
G01 X41.3768 Y33.7958 
G00 Z2.5400  
G00 X41.3768 Y31.2558 
G01 Z-0.2200 F254   
G01 X39.9032 Y31.2558 F508   
G01 X39.7533 Y31.2260 
G01 X39.6121 Y31.1675 
G01 X39.4851 Y31.0826 
G01 X39.3770 Y30.9745 
G01 X39.2921 Y30.8475 
G01 X39.2336 Y30.7063 
G01 X39.2038 Y30.5564 
G01 X39.2038 Y30.4036 
G01 X39.2336 Y30.2537 
G01 X39.2921 Y30.1125 
G01 X39.3770 Y29.9855 
G01 X39.4851 Y29.8774 
G01 X39.6121 Y29.7925 
G01 X39.7533 Y29.7340 
G01 X39.9032 Y29.7042 
G01 X41.3768 Y29.7042 
G01 X41.5267 Y29.7340 
G01 X41.6679 Y29.7925 
G01 X41.7949 Y29.8774 
G01 X41.9030 Y29.9855 
G01 X41.9879 Y30.1125 
G01 X42.0464 Y30.2537 
G01 X42.0762 Y30.4036 
G01 X42.0762 Y30.5564 
G01 X42.0464 Y30.7063 
G01 X41.9879 Y30.8475 
G01 X41.9030 Y30.9745 
G01 X41.7949 Y31.0826 
G01 X41.6679 Y31.1675 
G01 X41.5267 Y31.2260 
G01 X41.3768 Y31.2558 
G00 Z2.5400  
G00 X41.3768 Y26.1758 
G01 Z-0.2200 F254   
G01 X39.9032 Y26.1758 F508   
G01 X39.7533 Y26.1460 
G01 X39.6121 Y26.0875 
G01 X39.4851 Y26.0026 
G01 X39.3770 Y25.8945 
G01 X39.2921 Y25.7675 
G01 X39.2336 Y25.6263 
G01 X39.2038 Y25.4764 
G01 X39.2038 Y25.3236 
G01 X39.2336 Y25.1737 
G01 X39.2921 Y25.0325 
G01 X39.3770 Y24.9055 
G01 X39.4851 Y24.7974 
G01 X39.6121 Y24.7125 
G01 X39.7533 Y24.6540 
G01 X39.8896 Y24.6269 
G01 X39.8896 Y23.6331 
G01 X39.7533 Y23.6060 
G01 X39.6121 Y23.5475 
G01 X39.4851 Y23.4626 
G01 X39.3770 Y23.3545 
G01 X39.2921 Y23.2275 
G01 X39.2336 Y23.0863 
G01 X39.2038 Y22.9364 
G01 X39.2038 Y22.7836 
G01 X39.2336 Y22.6337 
G01 X39.2921 Y22.4925 
G01 X39.3770 Y22.3655 
G01 X39.4851 Y22.2574 
G01 X39.6121 Y22.1725 
G01 X39.7533 Y22.1140 
G01 X39.9032 Y22.0842 
G01 X41.3768 Y22.0842 
G01 X41.5045 Y22.1096 
G01 X44.1392 Y22.1096 
G01 X44.9696 Y21.2792 
G01 X44.9696 Y11.3561 
G01 X44.9984 Y11.2111 
G01 X45.0550 Y11.0746 
G01 X45.1371 Y10.9516 
G01 X46.4071 Y9.6817  
G01 X46.5116 Y9.5771  
G01 X46.6346 Y9.4950  
G01 X46.7711 Y9.4384  
G01 X46.9161 Y9.4096  
G01 X52.1439 Y9.4096  
G01 X52.2889 Y9.4384  
G01 X52.4254 Y9.4950  
G01 X52.5483 Y9.5771  
G01 X52.6529 Y9.6816  
G01 X52.7350 Y9.8046  
G01 X52.7916 Y9.9411  
G01 X52.8204 Y10.0861 
G01 X52.8204 Y15.4504 
G01 X52.8648 Y15.5577 
G01 X52.8966 Y15.7174 
G01 X52.8966 Y17.3026 
G01 X52.8648 Y17.4623 
G01 X52.8204 Y17.5696 
G01 X52.8204 Y26.8804 
G01 X52.8648 Y26.9877 
G01 X52.8966 Y27.1474 
G01 X52.8966 Y28.7326 
G01 X52.8648 Y28.8923 
G01 X52.8204 Y28.9996 
G01 X52.8204 Y38.3104 
G01 X52.8648 Y38.4177 
G01 X52.8966 Y38.5774 
G01 X52.8966 Y40.1626 
G01 X52.8648 Y40.3223 
G01 X52.8025 Y40.4727 
G01 X52.7121 Y40.6081 
G01 X52.6934 Y40.6268 
G01 X52.6934 Y45.3023 
G01 X52.7350 Y45.3646 
G01 X52.7916 Y45.5011 
G01 X52.8204 Y45.6461 
G01 X52.8204 Y45.7939 
G01 X52.7916 Y45.9389 
G01 X52.7350 Y46.0754 
G01 X52.6529 Y46.1984 
G01 X52.5483 Y46.3029 
G01 X52.4254 Y46.3850 
G01 X52.2889 Y46.4416 
G01 X52.1439 Y46.4704 
G01 X46.6104 Y46.4704 
G01 X46.6104 Y50.6839 
G01 X46.5816 Y50.8289 
G01 X46.5250 Y50.9654 
G01 X46.4429 Y51.0884 
G01 X46.3384 Y51.1929 
G01 X46.2604 Y51.2708 
G01 X46.2604 Y52.5330 
G01 X46.6254 Y52.8980 
G01 X46.6254 Y53.8220 
G01 X46.2604 Y54.1870 
G01 X46.2604 Y55.3592 
G01 X47.5729 Y56.6716 
G01 X47.6550 Y56.7946 
G01 X47.7116 Y56.9311 
G01 X47.7404 Y57.0761 
G01 X47.7404 Y67.3839 
G01 X47.7116 Y67.5289 
G01 X47.6550 Y67.6654 
G01 X47.5729 Y67.7884 
G01 X47.4684 Y67.8929 
G01 X47.3454 Y67.9750 
G01 X47.2089 Y68.0316 
G01 X47.0639 Y68.0604 
G01 X45.8424 Y68.0604 
G01 X45.7713 Y68.1315 
G01 X45.6276 Y68.2275 
G01 X45.4679 Y68.2937 
G01 X45.2984 Y68.3274 
G01 X43.6016 Y68.3274 
G01 X43.4321 Y68.2937 
G01 X43.2724 Y68.2275 
G01 X43.1287 Y68.1315 
G01 X43.0065 Y68.0093 
G01 X42.9105 Y67.8656 
G01 X42.8443 Y67.7059 
G01 X42.8106 Y67.5364 
G01 X42.8106 Y67.3636 
G01 X42.8443 Y67.1941 
G01 X42.9105 Y67.0344 
G01 X43.0065 Y66.8907 
G01 X43.1287 Y66.7685 
G01 X43.2724 Y66.6725 
G01 X43.4321 Y66.6063 
G01 X43.6016 Y66.5726 
G01 X44.4507 Y66.5726 
G01 X44.5161 Y66.5596 
G01 X46.2396 Y66.5596 
G01 X46.2396 Y57.4608 
G01 X45.0316 Y56.2529 
G01 X44.9271 Y56.1484 
G01 X44.8450 Y56.0254 
G01 X44.7884 Y55.8889 
G01 X44.7596 Y55.7439 
G01 X44.7596 Y54.1870 
G01 X44.3946 Y53.8220 
G01 X44.3946 Y52.8980 
G01 X44.7596 Y52.5330 
G01 X44.7596 Y51.7604 
G01 X33.3708 Y51.7604 
G01 X32.6104 Y52.5208 
G01 X32.6104 Y55.8839 
G01 X32.5816 Y56.0289 
G01 X32.5250 Y56.1654 
G01 X32.4429 Y56.2884 
G01 X29.5384 Y59.1929 
G01 X29.4154 Y59.2750 
G01 X29.2789 Y59.3316 
G01 X29.1339 Y59.3604 
G01 X23.3861 Y59.3604 
G01 X23.2411 Y59.3316 
G01 X23.1045 Y59.2750 
G01 X22.9816 Y59.1929 
G01 X22.8771 Y59.0884 
G01 X20.9571 Y57.1684 
G01 X20.8750 Y57.0454 
G01 X20.8184 Y56.9089 
G01 X20.7896 Y56.7639 
G01 X20.7896 Y54.6870 
G01 X20.6892 Y54.5866 
G01 X20.5860 Y54.4446 
G01 X20.5063 Y54.2882 
G01 X20.4521 Y54.1212 
G01 X20.4246 Y53.9478 
G01 X20.4246 Y53.7722 
G01 X20.4521 Y53.5988 
G01 X20.5063 Y53.4318 
G01 X20.5860 Y53.2754 
G01 X20.6892 Y53.1334 
G01 X20.7896 Y53.0330 
G01 X20.7896 Y51.0608 
G01 X19.8416 Y50.1129 
G01 X19.7371 Y50.0084 
G01 X19.6550 Y49.8854 
G01 X19.5984 Y49.7489 
G01 X19.5696 Y49.6039 
G01 X19.5696 Y46.7796 
G01 X19.5252 Y46.6723 
G01 X19.4934 Y46.5126 
G01 X19.4934 Y44.9274 
G01 X19.5252 Y44.7677 
G01 X19.5696 Y44.6604 
G01 X19.5696 Y37.4196 
G01 X19.5252 Y37.3123 
G01 X19.4934 Y37.1526 
G01 X19.4934 Y35.5674 
G01 X19.5252 Y35.4077 
G01 X19.5875 Y35.2573 
G01 X19.6779 Y35.1219 
G01 X19.7931 Y35.0067 
G01 X19.9285 Y34.9163 
G01 X20.0789 Y34.8540 
G01 X20.2386 Y34.8222 
G01 X20.4014 Y34.8222 
G01 X20.5611 Y34.8540 
G01 X20.7115 Y34.9163 
G01 X20.8469 Y35.0067 
G01 X20.9621 Y35.1219 
G01 X21.0525 Y35.2573 
G01 X21.1148 Y35.4077 
G01 X21.1466 Y35.5674 
G01 X21.1466 Y37.1526 
G01 X21.1148 Y37.3123 
G01 X21.0704 Y37.4196 
G01 X21.0704 Y44.6604 
G01 X21.1148 Y44.7677 
G01 X21.1466 Y44.9274 
G01 X21.1466 Y46.5126 
G01 X21.1148 Y46.6723 
G01 X21.0704 Y46.7796 
G01 X21.0704 Y49.2192 
G01 X22.0183 Y50.1671 
G01 X22.1229 Y50.2716 
G01 X22.2050 Y50.3946 
G01 X22.2616 Y50.5311 
G01 X22.2904 Y50.6761 
G01 X22.2904 Y53.0330 
G01 X22.3908 Y53.1334 
G01 X22.4940 Y53.2754 
G01 X22.5737 Y53.4318 
G01 X22.6279 Y53.5988 
G01 X22.6554 Y53.7722 
G01 X22.6554 Y53.9478 
G01 X22.6279 Y54.1212 
G01 X22.5737 Y54.2882 
G01 X22.4940 Y54.4446 
G01 X22.3908 Y54.5866 
G01 X22.2904 Y54.6870 
G01 X22.2904 Y56.3792 
G01 X23.7708 Y57.8596 
G01 X28.7492 Y57.8596 
G01 X31.1096 Y55.4992 
G01 X31.1096 Y52.1361 
G01 X31.1384 Y51.9911 
G01 X31.1950 Y51.8546 
G01 X31.2771 Y51.7316 
G01 X32.4771 Y50.5316 
G01 X32.5816 Y50.4271 
G01 X32.7046 Y50.3450 
G01 X32.8411 Y50.2884 
G01 X32.9861 Y50.2596 
G01 X41.0896 Y50.2596 
G01 X41.0896 Y49.4719 
G01 X41.0351 Y49.4174 
G01 X40.9375 Y49.2830 
G01 X40.8621 Y49.1351 
G01 X40.8108 Y48.9771 
G01 X40.7848 Y48.8130 
G01 X40.7848 Y48.6470 
G01 X40.8108 Y48.4829 
G01 X40.8621 Y48.3249 
G01 X40.9375 Y48.1770 
G01 X41.0351 Y48.0426 
G01 X41.1526 Y47.9251 
G01 X41.2870 Y47.8275 
G01 X41.4349 Y47.7521 
G01 X41.5929 Y47.7008 
G01 X41.7570 Y47.6748 
G01 X41.9230 Y47.6748 
G01 X42.0871 Y47.7008 
G01 X42.2451 Y47.7521 
G01 X42.3930 Y47.8275 
G01 X42.5274 Y47.9251 
G01 X42.6449 Y48.0426 
G01 X42.7425 Y48.1770 
G01 X42.8179 Y48.3249 
G01 X42.8692 Y48.4829 
G01 X42.8952 Y48.6470 
G01 X42.8952 Y48.8130 
G01 X42.8692 Y48.9771 
G01 X42.8179 Y49.1351 
G01 X42.7425 Y49.2830 
G01 X42.6449 Y49.4174 
G01 X42.5904 Y49.4719 
G01 X42.5904 Y50.2596 
G01 X45.1096 Y50.2596 
G01 X45.1096 Y46.4704 
G01 X36.7561 Y46.4704 
G01 X36.6111 Y46.4416 
G01 X36.4746 Y46.3850 
G01 X36.3516 Y46.3029 
G01 X36.2471 Y46.1984 
G01 X36.1650 Y46.0754 
G01 X36.1084 Y45.9389 
G01 X36.0796 Y45.7939 
G01 X36.0796 Y29.5208 
G01 X35.2492 Y28.6904 
G01 X33.8845 Y28.6904 
G01 X33.7568 Y28.7158 
G01 X32.2832 Y28.7158 
G01 X32.1333 Y28.6860 
G01 X31.9921 Y28.6275 
G01 X31.8651 Y28.5426 
G01 X31.7570 Y28.4345 
G01 X31.6721 Y28.3075 
G01 X31.6136 Y28.1663 
G01 X31.5838 Y28.0164 
G01 X31.5838 Y27.8636 
G01 X31.6136 Y27.7137 
G01 X31.6721 Y27.5725 
G01 X31.7570 Y27.4455 
G01 X31.8651 Y27.3374 
G01 X31.9921 Y27.2525 
G01 X32.1333 Y27.1940 
G01 X32.2832 Y27.1642 
G01 X33.7568 Y27.1642 
G01 X33.8845 Y27.1896 
G01 X35.6339 Y27.1896 
G01 X35.7789 Y27.2184 
G01 X35.9154 Y27.2750 
G01 X36.0384 Y27.3571 
G01 X36.1429 Y27.4616 
G01 X37.4129 Y28.7316 
G01 X37.4950 Y28.8545 
G01 X37.5516 Y28.9911 
G01 X37.5804 Y29.1361 
G01 X37.5804 Y44.9696 
G01 X51.4466 Y44.9696 
G01 X51.4466 Y40.6268 
G01 X51.4279 Y40.6081 
G01 X51.3375 Y40.4727 
G01 X51.2752 Y40.3223 
G01 X51.2434 Y40.1626 
G01 X51.2434 Y38.5774 
G01 X51.2752 Y38.4177 
G01 X51.3196 Y38.3104 
G01 X51.3196 Y28.9996 
G01 X51.2752 Y28.8923 
G01 X51.2434 Y28.7326 
G01 X51.2434 Y27.1474 
G01 X51.2752 Y26.9877 
G01 X51.3196 Y26.8804 
G01 X51.3196 Y17.5696 
G01 X51.2752 Y17.4623 
G01 X51.2434 Y17.3026 
G01 X51.2434 Y15.7174 
G01 X51.2752 Y15.5577 
G01 X51.3196 Y15.4504 
G01 X51.3196 Y10.9104 
G01 X47.3008 Y10.9104 
G01 X46.4704 Y11.7408 
G01 X46.4704 Y21.6639 
G01 X46.4416 Y21.8089 
G01 X46.3850 Y21.9454 
G01 X46.3029 Y22.0684 
G01 X46.1984 Y22.1729 
G01 X45.0329 Y23.3383 
G01 X44.9284 Y23.4429 
G01 X44.8054 Y23.5250 
G01 X44.6689 Y23.5816 
G01 X44.5239 Y23.6104 
G01 X41.5045 Y23.6104 
G01 X41.3904 Y23.6331 
G01 X41.3904 Y24.6269 
G01 X41.5267 Y24.6540 
G01 X41.6679 Y24.7125 
G01 X41.7949 Y24.7974 
G01 X41.9030 Y24.9055 
G01 X41.9879 Y25.0325 
G01 X42.0464 Y25.1737 
G01 X42.0762 Y25.3236 
G01 X42.0762 Y25.4764 
G01 X42.0464 Y25.6263 
G01 X41.9879 Y25.7675 
G01 X41.9030 Y25.8945 
G01 X41.7949 Y26.0026 
G01 X41.6679 Y26.0875 
G01 X41.5267 Y26.1460 
G01 X41.3768 Y26.1758 
G00 Z2.5400  
G00 X41.3768 Y21.0958 
G01 Z-0.2200 F254   
G01 X39.9032 Y21.0958 F508   
G01 X39.7533 Y21.0660 
G01 X39.6121 Y21.0075 
G01 X39.4851 Y20.9226 
G01 X39.3770 Y20.8145 
G01 X39.2921 Y20.6875 
G01 X39.2336 Y20.5463 
G01 X39.2038 Y20.3964 
G01 X39.2038 Y20.2436 
G01 X39.2336 Y20.0937 
G01 X39.2921 Y19.9525 
G01 X39.3770 Y19.8255 
G01 X39.4851 Y19.7174 
G01 X39.6121 Y19.6325 
G01 X39.7533 Y19.5740 
G01 X39.9032 Y19.5442 
G01 X41.3768 Y19.5442 
G01 X41.5267 Y19.5740 
G01 X41.6679 Y19.6325 
G01 X41.7949 Y19.7174 
G01 X41.9030 Y19.8255 
G01 X41.9879 Y19.9525 
G01 X42.0464 Y20.0937 
G01 X42.0762 Y20.2436 
G01 X42.0762 Y20.3964 
G01 X42.0464 Y20.5463 
G01 X41.9879 Y20.6875 
G01 X41.9030 Y20.8145 
G01 X41.7949 Y20.9226 
G01 X41.6679 Y21.0075 
G01 X41.5267 Y21.0660 
G01 X41.3768 Y21.0958 
G00 Z2.5400  
G00 X41.3768 Y18.5558 
G01 Z-0.2200 F254   
G01 X39.9032 Y18.5558 F508   
G01 X39.7533 Y18.5260 
G01 X39.6121 Y18.4675 
G01 X39.4851 Y18.3826 
G01 X39.3770 Y18.2745 
G01 X39.2921 Y18.1475 
G01 X39.2336 Y18.0063 
G01 X39.2038 Y17.8564 
G01 X39.2038 Y17.7036 
G01 X39.2336 Y17.5537 
G01 X39.2921 Y17.4125 
G01 X39.3770 Y17.2855 
G01 X39.4851 Y17.1774 
G01 X39.6121 Y17.0925 
G01 X39.7533 Y17.0340 
G01 X39.9032 Y17.0042 
G01 X41.3768 Y17.0042 
G01 X41.5267 Y17.0340 
G01 X41.6679 Y17.0925 
G01 X41.7949 Y17.1774 
G01 X41.9030 Y17.2855 
G01 X41.9879 Y17.4125 
G01 X42.0464 Y17.5537 
G01 X42.0762 Y17.7036 
G01 X42.0762 Y17.8564 
G01 X42.0464 Y18.0063 
G01 X41.9879 Y18.1475 
G01 X41.9030 Y18.2745 
G01 X41.7949 Y18.3826 
G01 X41.6679 Y18.4675 
G01 X41.5267 Y18.5260 
G01 X41.3768 Y18.5558 
G00 Z2.5400  
G00 X41.3768 Y16.0158 
G01 Z-0.2200 F254   
G01 X39.9032 Y16.0158 F508   
G01 X39.7533 Y15.9860 
G01 X39.6121 Y15.9275 
G01 X39.4851 Y15.8426 
G01 X39.3770 Y15.7345 
G01 X39.2921 Y15.6075 
G01 X39.2336 Y15.4663 
G01 X39.2038 Y15.3164 
G01 X39.2038 Y15.1636 
G01 X39.2336 Y15.0137 
G01 X39.2921 Y14.8725 
G01 X39.3770 Y14.7455 
G01 X39.4851 Y14.6374 
G01 X39.6121 Y14.5525 
G01 X39.7533 Y14.4940 
G01 X39.9032 Y14.4642 
G01 X41.3768 Y14.4642 
G01 X41.5267 Y14.4940 
G01 X41.6679 Y14.5525 
G01 X41.7949 Y14.6374 
G01 X41.9030 Y14.7455 
G01 X41.9879 Y14.8725 
G01 X42.0464 Y15.0137 
G01 X42.0762 Y15.1636 
G01 X42.0762 Y15.3164 
G01 X42.0464 Y15.4663 
G01 X41.9879 Y15.6075 
G01 X41.9030 Y15.7345 
G01 X41.7949 Y15.8426 
G01 X41.6679 Y15.9275 
G01 X41.5267 Y15.9860 
G01 X41.3768 Y16.0158 
G00 Z2.5400  
G00 X41.3768 Y13.4758 
G01 Z-0.2200 F254   
G01 X39.9032 Y13.4758 F508   
G01 X39.7533 Y13.4460 
G01 X39.6121 Y13.3875 
G01 X39.4851 Y13.3026 
G01 X39.3770 Y13.1945 
G01 X39.2921 Y13.0675 
G01 X39.2336 Y12.9263 
G01 X39.2038 Y12.7764 
G01 X39.2038 Y12.6236 
G01 X39.2336 Y12.4737 
G01 X39.2921 Y12.3325 
G01 X39.3770 Y12.2055 
G01 X39.4851 Y12.0974 
G01 X39.6121 Y12.0125 
G01 X39.7533 Y11.9540 
G01 X39.9032 Y11.9242 
G01 X41.3768 Y11.9242 
G01 X41.5267 Y11.9540 
G01 X41.6679 Y12.0125 
G01 X41.7949 Y12.0974 
G01 X41.9030 Y12.2055 
G01 X41.9879 Y12.3325 
G01 X42.0464 Y12.4737 
G01 X42.0762 Y12.6236 
G01 X42.0762 Y12.7764 
G01 X42.0464 Y12.9263 
G01 X41.9879 Y13.0675 
G01 X41.9030 Y13.1945 
G01 X41.7949 Y13.3026 
G01 X41.6679 Y13.3875 
G01 X41.5267 Y13.4460 
G01 X41.3768 Y13.4758 
G00 Z2.5400  
G00 X41.3768 Y10.9358 
G01 Z-0.2200 F254   
G01 X39.9032 Y10.9358 F508   
G01 X39.7533 Y10.9060 
G01 X39.6121 Y10.8475 
G01 X39.4851 Y10.7626 
G01 X39.3770 Y10.6545 
G01 X39.2921 Y10.5275 
G01 X39.2336 Y10.3863 
G01 X39.2038 Y10.2364 
G01 X39.2038 Y10.0836 
G01 X39.2336 Y9.9337  
G01 X39.2921 Y9.7925  
G01 X39.3770 Y9.6655  
G01 X39.4851 Y9.5574  
G01 X39.6121 Y9.4725  
G01 X39.7533 Y9.4140  
G01 X39.9032 Y9.3842  
G01 X41.3768 Y9.3842  
G01 X41.5267 Y9.4140  
G01 X41.6679 Y9.4725  
G01 X41.7949 Y9.5574  
G01 X41.9030 Y9.6655  
G01 X41.9879 Y9.7925  
G01 X42.0464 Y9.9337  
G01 X42.0762 Y10.0836 
G01 X42.0762 Y10.2364 
G01 X42.0464 Y10.3863 
G01 X41.9879 Y10.5275 
G01 X41.9030 Y10.6545 
G01 X41.7949 Y10.7626 
G01 X41.6679 Y10.8475 
G01 X41.5267 Y10.9060 
G01 X41.3768 Y10.9358 
G00 Z2.5400  
G00 X33.7568 Y10.9358 
G01 Z-0.2200 F254   
G01 X32.2832 Y10.9358 F508   
G01 X32.1333 Y10.9060 
G01 X31.9921 Y10.8475 
G01 X31.8651 Y10.7626 
G01 X31.7570 Y10.6545 
G01 X31.6721 Y10.5275 
G01 X31.6136 Y10.3863 
G01 X31.5838 Y10.2364 
G01 X31.5838 Y10.0836 
G01 X31.6136 Y9.9337  
G01 X31.6721 Y9.7925  
G01 X31.7570 Y9.6655  
G01 X31.8651 Y9.5574  
G01 X31.9921 Y9.4725  
G01 X32.1333 Y9.4140  
G01 X32.2832 Y9.3842  
G01 X33.7568 Y9.3842  
G01 X33.9067 Y9.4140  
G01 X34.0479 Y9.4725  
G01 X34.1749 Y9.5574  
G01 X34.2830 Y9.6655  
G01 X34.3679 Y9.7925  
G01 X34.4264 Y9.9337  
G01 X34.4562 Y10.0836 
G01 X34.4562 Y10.2364 
G01 X34.4264 Y10.3863 
G01 X34.3679 Y10.5275 
G01 X34.2830 Y10.6545 
G01 X34.1749 Y10.7626 
G01 X34.0479 Y10.8475 
G01 X33.9067 Y10.9060 
G01 X33.7568 Y10.9358 
G00 Z2.5400  
G00 X33.7568 Y13.4758 
G01 Z-0.2200 F254   
G01 X32.2832 Y13.4758 F508   
G01 X32.1333 Y13.4460 
G01 X31.9921 Y13.3875 
G01 X31.8651 Y13.3026 
G01 X31.7570 Y13.1945 
G01 X31.6721 Y13.0675 
G01 X31.6136 Y12.9263 
G01 X31.5838 Y12.7764 
G01 X31.5838 Y12.6236 
G01 X31.6136 Y12.4737 
G01 X31.6721 Y12.3325 
G01 X31.7570 Y12.2055 
G01 X31.8651 Y12.0974 
G01 X31.9921 Y12.0125 
G01 X32.1333 Y11.9540 
G01 X32.2832 Y11.9242 
G01 X33.7568 Y11.9242 
G01 X33.9067 Y11.9540 
G01 X34.0479 Y12.0125 
G01 X34.1749 Y12.0974 
G01 X34.2830 Y12.2055 
G01 X34.3679 Y12.3325 
G01 X34.4264 Y12.4737 
G01 X34.4562 Y12.6236 
G01 X34.4562 Y12.7764 
G01 X34.4264 Y12.9263 
G01 X34.3679 Y13.0675 
G01 X34.2830 Y13.1945 
G01 X34.1749 Y13.3026 
G01 X34.0479 Y13.3875 
G01 X33.9067 Y13.4460 
G01 X33.7568 Y13.4758 
G00 Z2.5400  
G00 X33.7568 Y16.0158 
G01 Z-0.2200 F254   
G01 X32.2832 Y16.0158 F508   
G01 X32.1333 Y15.9860 
G01 X31.9921 Y15.9275 
G01 X31.8651 Y15.8426 
G01 X31.7570 Y15.7345 
G01 X31.6721 Y15.6075 
G01 X31.6136 Y15.4663 
G01 X31.5838 Y15.3164 
G01 X31.5838 Y15.1636 
G01 X31.6136 Y15.0137 
G01 X31.6721 Y14.8725 
G01 X31.7570 Y14.7455 
G01 X31.8651 Y14.6374 
G01 X31.9921 Y14.5525 
G01 X32.1333 Y14.4940 
G01 X32.2832 Y14.4642 
G01 X33.7568 Y14.4642 
G01 X33.9067 Y14.4940 
G01 X34.0479 Y14.5525 
G01 X34.1749 Y14.6374 
G01 X34.2830 Y14.7455 
G01 X34.3679 Y14.8725 
G01 X34.4264 Y15.0137 
G01 X34.4562 Y15.1636 
G01 X34.4562 Y15.3164 
G01 X34.4264 Y15.4663 
G01 X34.3679 Y15.6075 
G01 X34.2830 Y15.7345 
G01 X34.1749 Y15.8426 
G01 X34.0479 Y15.9275 
G01 X33.9067 Y15.9860 
G01 X33.7568 Y16.0158 
G00 Z2.5400  
G00 X33.7568 Y41.4158 
G01 Z-0.2200 F254   
G01 X32.2832 Y41.4158 F508   
G01 X32.1555 Y41.3904 
G01 X30.7908 Y41.3904 
G01 X29.9604 Y42.2208 
G01 X29.9604 Y54.9339 
G01 X29.9316 Y55.0789 
G01 X29.8750 Y55.2154 
G01 X29.7929 Y55.3384 
G01 X28.3384 Y56.7929 
G01 X28.2154 Y56.8750 
G01 X28.0789 Y56.9316 
G01 X27.9339 Y56.9604 
G01 X24.9861 Y56.9604 
G01 X24.8411 Y56.9316 
G01 X24.7046 Y56.8750 
G01 X24.5816 Y56.7929 
G01 X23.4971 Y55.7084 
G01 X23.4150 Y55.5854 
G01 X23.3584 Y55.4489 
G01 X23.3296 Y55.3039 
G01 X23.3296 Y54.6870 
G01 X23.2292 Y54.5866 
G01 X23.1260 Y54.4446 
G01 X23.0463 Y54.2882 
G01 X22.9921 Y54.1212 
G01 X22.9646 Y53.9478 
G01 X22.9646 Y53.7722 
G01 X22.9921 Y53.5988 
G01 X23.0463 Y53.4318 
G01 X23.1260 Y53.2754 
G01 X23.2292 Y53.1334 
G01 X23.3534 Y53.0092 
G01 X23.4954 Y52.9060 
G01 X23.6518 Y52.8263 
G01 X23.8188 Y52.7721 
G01 X23.9922 Y52.7446 
G01 X24.1678 Y52.7446 
G01 X24.3412 Y52.7721 
G01 X24.5082 Y52.8263 
G01 X24.6646 Y52.9060 
G01 X24.8066 Y53.0092 
G01 X24.9308 Y53.1334 
G01 X25.0340 Y53.2754 
G01 X25.1137 Y53.4318 
G01 X25.1679 Y53.5988 
G01 X25.1954 Y53.7722 
G01 X25.1954 Y53.9478 
G01 X25.1679 Y54.1212 
G01 X25.1137 Y54.2882 
G01 X25.0340 Y54.4446 
G01 X24.9308 Y54.5866 
G01 X24.8304 Y54.6870 
G01 X24.8304 Y54.9192 
G01 X25.3708 Y55.4596 
G01 X27.5492 Y55.4596 
G01 X28.4596 Y54.5492 
G01 X28.4596 Y41.8361 
G01 X28.4884 Y41.6911 
G01 X28.5450 Y41.5545 
G01 X28.6271 Y41.4316 
G01 X28.7316 Y41.3271 
G01 X30.0016 Y40.0571 
G01 X30.1246 Y39.9750 
G01 X30.2611 Y39.9184 
G01 X30.4061 Y39.8896 
G01 X32.1555 Y39.8896 
G01 X32.2832 Y39.8642 
G01 X33.7568 Y39.8642 
G01 X33.9067 Y39.8940 
G01 X34.0479 Y39.9525 
G01 X34.1749 Y40.0374 
G01 X34.2830 Y40.1455 
G01 X34.3679 Y40.2725 
G01 X34.4264 Y40.4137 
G01 X34.4562 Y40.5636 
G01 X34.4562 Y40.7164 
G01 X34.4264 Y40.8663 
G01 X34.3679 Y41.0075 
G01 X34.2830 Y41.1345 
G01 X34.1749 Y41.2426 
G01 X34.0479 Y41.3275 
G01 X33.9067 Y41.3860 
G01 X33.7568 Y41.4158 
G00 Z2.5400  
G00 X33.7568 Y43.9558 
G01 Z-0.2200 F254   
G01 X33.3704 Y43.9558 F508   
G01 X33.3704 Y47.9796 
G01 X33.4781 Y47.9796 
G01 X33.5326 Y47.9251 
G01 X33.6670 Y47.8275 
G01 X33.8149 Y47.7521 
G01 X33.9729 Y47.7008 
G01 X34.1369 Y47.6748 
G01 X34.3030 Y47.6748 
G01 X34.4671 Y47.7008 
G01 X34.6251 Y47.7521 
G01 X34.7730 Y47.8275 
G01 X34.9074 Y47.9251 
G01 X35.0249 Y48.0426 
G01 X35.1225 Y48.1770 
G01 X35.1979 Y48.3249 
G01 X35.2492 Y48.4829 
G01 X35.2752 Y48.6470 
G01 X35.2752 Y48.8130 
G01 X35.2492 Y48.9771 
G01 X35.1979 Y49.1351 
G01 X35.1225 Y49.2830 
G01 X35.0249 Y49.4174 
G01 X34.9074 Y49.5349 
G01 X34.7730 Y49.6325 
G01 X34.6251 Y49.7079 
G01 X34.4671 Y49.7592 
G01 X34.3030 Y49.7852 
G01 X34.1369 Y49.7852 
G01 X33.9729 Y49.7592 
G01 X33.8149 Y49.7079 
G01 X33.6670 Y49.6325 
G01 X33.5326 Y49.5349 
G01 X33.4781 Y49.4804 
G01 X32.5461 Y49.4804 
G01 X32.4011 Y49.4516 
G01 X32.2645 Y49.3950 
G01 X32.1416 Y49.3129 
G01 X32.0371 Y49.2084 
G01 X31.9550 Y49.0854 
G01 X31.8984 Y48.9489 
G01 X31.8696 Y48.8039 
G01 X31.8696 Y43.7856 
G01 X31.8651 Y43.7826 
G01 X31.7570 Y43.6745 
G01 X31.6721 Y43.5475 
G01 X31.6136 Y43.4063 
G01 X31.5838 Y43.2564 
G01 X31.5838 Y43.1036 
G01 X31.6136 Y42.9537 
G01 X31.6721 Y42.8125 
G01 X31.7570 Y42.6855 
G01 X31.8651 Y42.5774 
G01 X31.9921 Y42.4925 
G01 X32.1333 Y42.4340 
G01 X32.2832 Y42.4042 
G01 X33.7568 Y42.4042 
G01 X33.9067 Y42.4340 
G01 X34.0479 Y42.4925 
G01 X34.1749 Y42.5774 
G01 X34.2830 Y42.6855 
G01 X34.3679 Y42.8125 
G01 X34.4264 Y42.9537 
G01 X34.4562 Y43.1036 
G01 X34.4562 Y43.2564 
G01 X34.4264 Y43.4063 
G01 X34.3679 Y43.5475 
G01 X34.2830 Y43.6745 
G01 X34.1749 Y43.7826 
G01 X34.0479 Y43.8675 
G01 X33.9067 Y43.9260 
G01 X33.7568 Y43.9558 
G00 Z2.5400  
G00 X50.3566 Y38.5774 
G01 Z-0.2200 F254   
G01 X50.3566 Y40.1626 F508   
G01 X50.3248 Y40.3223 
G01 X50.2625 Y40.4727 
G01 X50.1721 Y40.6081 
G01 X50.1534 Y40.6268 
G01 X50.1534 Y42.7623 
G01 X50.1950 Y42.8246 
G01 X50.2516 Y42.9611 
G01 X50.2804 Y43.1061 
G01 X50.2804 Y43.2539 
G01 X50.2516 Y43.3989 
G01 X50.1950 Y43.5354 
G01 X50.1129 Y43.6583 
G01 X50.0084 Y43.7629 
G01 X49.8854 Y43.8450 
G01 X49.7489 Y43.9016 
G01 X49.6039 Y43.9304 
G01 X41.5045 Y43.9304 
G01 X41.3768 Y43.9558 
G01 X39.9032 Y43.9558 
G01 X39.7533 Y43.9260 
G01 X39.6121 Y43.8675 
G01 X39.4851 Y43.7826 
G01 X39.3770 Y43.6745 
G01 X39.2921 Y43.5475 
G01 X39.2336 Y43.4063 
G01 X39.2038 Y43.2564 
G01 X39.2038 Y43.1036 
G01 X39.2336 Y42.9537 
G01 X39.2921 Y42.8125 
G01 X39.3770 Y42.6855 
G01 X39.4851 Y42.5774 
G01 X39.6121 Y42.4925 
G01 X39.7533 Y42.4340 
G01 X39.9032 Y42.4042 
G01 X41.3768 Y42.4042 
G01 X41.5045 Y42.4296 
G01 X48.9066 Y42.4296 
G01 X48.9066 Y40.6268 
G01 X48.8879 Y40.6081 
G01 X48.7975 Y40.4727 
G01 X48.7352 Y40.3223 
G01 X48.7034 Y40.1626 
G01 X48.7034 Y38.5774 
G01 X48.7352 Y38.4177 
G01 X48.7975 Y38.2673 
G01 X48.8879 Y38.1319 
G01 X49.0031 Y38.0167 
G01 X49.1385 Y37.9263 
G01 X49.2889 Y37.8640 
G01 X49.4486 Y37.8322 
G01 X49.6114 Y37.8322 
G01 X49.7711 Y37.8640 
G01 X49.9215 Y37.9263 
G01 X50.0569 Y38.0167 
G01 X50.1721 Y38.1319 
G01 X50.2625 Y38.2673 
G01 X50.3248 Y38.4177 
G01 X50.3566 Y38.5774 
G00 Z2.5400  
G00 X27.7354 Y53.7722 
G01 Z-0.2200 F254   
G01 X27.7354 Y53.9478 F508   
G01 X27.7079 Y54.1212 
G01 X27.6537 Y54.2882 
G01 X27.5740 Y54.4446 
G01 X27.4708 Y54.5866 
G01 X27.3466 Y54.7108 
G01 X27.2046 Y54.8140 
G01 X27.0482 Y54.8937 
G01 X26.8812 Y54.9479 
G01 X26.7078 Y54.9754 
G01 X26.5322 Y54.9754 
G01 X26.3588 Y54.9479 
G01 X26.1918 Y54.8937 
G01 X26.0354 Y54.8140 
G01 X25.8934 Y54.7108 
G01 X25.7692 Y54.5866 
G01 X25.6660 Y54.4446 
G01 X25.5863 Y54.2882 
G01 X25.5321 Y54.1212 
G01 X25.5046 Y53.9478 
G01 X25.5046 Y53.7722 
G01 X25.5321 Y53.5988 
G01 X25.5863 Y53.4318 
G01 X25.6660 Y53.2754 
G01 X25.7692 Y53.1334 
G01 X25.8934 Y53.0092 
G01 X25.9096 Y52.9974 
G01 X25.9096 Y40.5761 
G01 X25.9384 Y40.4311 
G01 X25.9950 Y40.2946 
G01 X26.0771 Y40.1716 
G01 X26.1816 Y40.0671 
G01 X28.7316 Y37.5171 
G01 X28.8545 Y37.4350 
G01 X28.9911 Y37.3784 
G01 X29.1361 Y37.3496 
G01 X32.1555 Y37.3496 
G01 X32.2832 Y37.3242 
G01 X33.7568 Y37.3242 
G01 X33.9067 Y37.3540 
G01 X34.0479 Y37.4125 
G01 X34.1749 Y37.4974 
G01 X34.2830 Y37.6055 
G01 X34.3679 Y37.7325 
G01 X34.4264 Y37.8737 
G01 X34.4562 Y38.0236 
G01 X34.4562 Y38.1764 
G01 X34.4264 Y38.3263 
G01 X34.3679 Y38.4675 
G01 X34.2830 Y38.5945 
G01 X34.1749 Y38.7026 
G01 X34.0479 Y38.7875 
G01 X33.9067 Y38.8460 
G01 X33.7568 Y38.8758 
G01 X32.2832 Y38.8758 
G01 X32.1555 Y38.8504 
G01 X29.5208 Y38.8504 
G01 X27.4104 Y40.9608 
G01 X27.4104 Y53.0730 
G01 X27.4708 Y53.1334 
G01 X27.5740 Y53.2754 
G01 X27.6537 Y53.4318 
G01 X27.7079 Y53.5988 
G01 X27.7354 Y53.7722 
G00 Z2.5400  
G00 X30.2652 Y12.6170 
G01 Z-0.2200 F254   
G01 X30.2652 Y12.7830 F508   
G01 X30.2392 Y12.9471 
G01 X30.1879 Y13.1051 
G01 X30.1125 Y13.2530 
G01 X30.0149 Y13.3874 
G01 X29.9604 Y13.4419 
G01 X29.9604 Y16.1992 
G01 X30.7908 Y17.0296 
G01 X32.1555 Y17.0296 
G01 X32.2832 Y17.0042 
G01 X33.7568 Y17.0042 
G01 X33.9067 Y17.0340 
G01 X34.0479 Y17.0925 
G01 X34.1749 Y17.1774 
G01 X34.2830 Y17.2855 
G01 X34.3679 Y17.4125 
G01 X34.4264 Y17.5537 
G01 X34.4562 Y17.7036 
G01 X34.4562 Y17.8564 
G01 X34.4264 Y18.0063 
G01 X34.3679 Y18.1475 
G01 X34.2830 Y18.2745 
G01 X34.1749 Y18.3826 
G01 X34.0479 Y18.4675 
G01 X33.9067 Y18.5260 
G01 X33.7568 Y18.5558 
G01 X32.2832 Y18.5558 
G01 X32.1555 Y18.5304 
G01 X30.4061 Y18.5304 
G01 X30.2611 Y18.5016 
G01 X30.1246 Y18.4450 
G01 X30.0016 Y18.3629 
G01 X29.8971 Y18.2584 
G01 X28.7316 Y17.0929 
G01 X28.6271 Y16.9884 
G01 X28.5450 Y16.8654 
G01 X28.4884 Y16.7289 
G01 X28.4596 Y16.5839 
G01 X28.4596 Y13.4419 
G01 X28.4051 Y13.3874 
G01 X28.3075 Y13.2530 
G01 X28.2321 Y13.1051 
G01 X28.1808 Y12.9471 
G01 X28.1548 Y12.7830 
G01 X28.1548 Y12.6170 
G01 X28.1808 Y12.4529 
G01 X28.2321 Y12.2949 
G01 X28.3075 Y12.1470 
G01 X28.4051 Y12.0126 
G01 X28.5226 Y11.8951 
G01 X28.6570 Y11.7975 
G01 X28.8049 Y11.7221 
G01 X28.9629 Y11.6708 
G01 X29.1270 Y11.6448 
G01 X29.2930 Y11.6448 
G01 X29.4571 Y11.6708 
G01 X29.6151 Y11.7221 
G01 X29.7630 Y11.7975 
G01 X29.8974 Y11.8951 
G01 X30.0149 Y12.0126 
G01 X30.1125 Y12.1470 
G01 X30.1879 Y12.2949 
G01 X30.2392 Y12.4529 
G01 X30.2652 Y12.6170 
G00 Z2.5400  
G00 X31.1674 Y31.2849 
G01 Z-0.2200 F254   
G01 X31.0330 Y31.3825 F508   
G01 X30.8851 Y31.4579 
G01 X30.7271 Y31.5092 
G01 X30.5630 Y31.5352 
G01 X30.3970 Y31.5352 
G01 X30.2329 Y31.5092 
G01 X30.0749 Y31.4579 
G01 X29.9270 Y31.3825 
G01 X29.7926 Y31.2849 
G01 X29.6751 Y31.1674 
G01 X29.5775 Y31.0330 
G01 X29.5021 Y30.8851 
G01 X29.4508 Y30.7271 
G01 X29.4248 Y30.5630 
G01 X29.4248 Y30.3970 
G01 X29.4508 Y30.2329 
G01 X29.5021 Y30.0749 
G01 X29.5775 Y29.9270 
G01 X29.6751 Y29.7926 
G01 X29.7926 Y29.6751 
G01 X29.9270 Y29.5775 
G01 X30.0749 Y29.5021 
G01 X30.2329 Y29.4508 
G01 X30.3970 Y29.4248 
G01 X30.5630 Y29.4248 
G01 X30.7271 Y29.4508 
G01 X30.8851 Y29.5021 
G01 X31.0330 Y29.5775 
G01 X31.1674 Y29.6751 
G01 X31.2219 Y29.7296 
G01 X32.1555 Y29.7296 
G01 X32.2832 Y29.7042 
G01 X33.7568 Y29.7042 
G01 X33.9067 Y29.7340 
G01 X34.0479 Y29.7925 
G01 X34.1749 Y29.8774 
G01 X34.2830 Y29.9855 
G01 X34.3679 Y30.1125 
G01 X34.4264 Y30.2537 
G01 X34.4562 Y30.4036 
G01 X34.4562 Y30.5564 
G01 X34.4264 Y30.7063 
G01 X34.3679 Y30.8475 
G01 X34.2830 Y30.9745 
G01 X34.1749 Y31.0826 
G01 X34.0479 Y31.1675 
G01 X33.9067 Y31.2260 
G01 X33.7568 Y31.2558 
G01 X32.2832 Y31.2558 
G01 X32.1555 Y31.2304 
G01 X31.2219 Y31.2304 
G01 X31.1674 Y31.2849 
G00 Z2.5400  
G00 X23.9152 Y30.3970 
G01 Z-0.2200 F254   
G01 X23.9152 Y30.5630 F508   
G01 X23.8892 Y30.7271 
G01 X23.8379 Y30.8851 
G01 X23.7625 Y31.0330 
G01 X23.6649 Y31.1674 
G01 X23.5474 Y31.2849 
G01 X23.4130 Y31.3825 
G01 X23.2651 Y31.4579 
G01 X23.1071 Y31.5092 
G01 X22.9430 Y31.5352 
G01 X22.7769 Y31.5352 
G01 X22.6129 Y31.5092 
G01 X22.4549 Y31.4579 
G01 X22.3070 Y31.3825 
G01 X22.1726 Y31.2849 
G01 X22.0551 Y31.1674 
G01 X21.9575 Y31.0330 
G01 X21.8821 Y30.8851 
G01 X21.8308 Y30.7271 
G01 X21.8048 Y30.5630 
G01 X21.8048 Y30.3970 
G01 X21.8308 Y30.2329 
G01 X21.8821 Y30.0749 
G01 X21.9575 Y29.9270 
G01 X22.0551 Y29.7926 
G01 X22.1096 Y29.7381 
G01 X22.1096 Y28.6904 
G01 X15.1661 Y28.6904 
G01 X15.0211 Y28.6616 
G01 X14.8846 Y28.6050 
G01 X14.7616 Y28.5229 
G01 X14.6571 Y28.4184 
G01 X14.5750 Y28.2954 
G01 X14.5184 Y28.1589 
G01 X14.4896 Y28.0139 
G01 X14.4896 Y23.9196 
G01 X14.4452 Y23.8123 
G01 X14.4134 Y23.6526 
G01 X14.4134 Y22.0674 
G01 X14.4452 Y21.9077 
G01 X14.5075 Y21.7573 
G01 X14.5979 Y21.6219 
G01 X14.7131 Y21.5067 
G01 X14.8485 Y21.4163 
G01 X14.9989 Y21.3540 
G01 X15.1586 Y21.3222 
G01 X15.3214 Y21.3222 
G01 X15.4811 Y21.3540 
G01 X15.6315 Y21.4163 
G01 X15.7669 Y21.5067 
G01 X15.8821 Y21.6219 
G01 X15.9725 Y21.7573 
G01 X16.0348 Y21.9077 
G01 X16.0666 Y22.0674 
G01 X16.0666 Y23.6526 
G01 X16.0348 Y23.8123 
G01 X15.9904 Y23.9196 
G01 X15.9904 Y27.1896 
G01 X22.9339 Y27.1896 
G01 X23.0789 Y27.2184 
G01 X23.2154 Y27.2750 
G01 X23.3384 Y27.3571 
G01 X23.4429 Y27.4616 
G01 X23.5250 Y27.5846 
G01 X23.5816 Y27.7211 
G01 X23.6104 Y27.8661 
G01 X23.6104 Y29.7381 
G01 X23.6649 Y29.7926 
G01 X23.7625 Y29.9270 
G01 X23.8379 Y30.0749 
G01 X23.8892 Y30.2329 
G01 X23.9152 Y30.3970 
G00 Z2.5400  
G00 X21.3752 Y30.3970 
G01 Z-0.2200 F254   
G01 X21.3752 Y30.5630 F508   
G01 X21.3492 Y30.7271 
G01 X21.2979 Y30.8851 
G01 X21.2225 Y31.0330 
G01 X21.1249 Y31.1674 
G01 X21.0704 Y31.2219 
G01 X21.0704 Y32.2696 
G01 X32.1555 Y32.2696 
G01 X32.2832 Y32.2442 
G01 X33.7568 Y32.2442 
G01 X33.9067 Y32.2740 
G01 X34.0479 Y32.3325 
G01 X34.1749 Y32.4174 
G01 X34.2830 Y32.5255 
G01 X34.3679 Y32.6525 
G01 X34.4264 Y32.7937 
G01 X34.4562 Y32.9436 
G01 X34.4562 Y33.0964 
G01 X34.4264 Y33.2463 
G01 X34.3679 Y33.3875 
G01 X34.2830 Y33.5145 
G01 X34.1749 Y33.6226 
G01 X34.0479 Y33.7075 
G01 X33.9067 Y33.7660 
G01 X33.7568 Y33.7958 
G01 X32.2832 Y33.7958 
G01 X32.1555 Y33.7704 
G01 X23.6104 Y33.7704 
G01 X23.6104 Y35.3004 
G01 X23.6548 Y35.4077 
G01 X23.6866 Y35.5674 
G01 X23.6866 Y37.1526 
G01 X23.6548 Y37.3123 
G01 X23.5925 Y37.4627 
G01 X23.5021 Y37.5981 
G01 X23.3869 Y37.7133 
G01 X23.2515 Y37.8037 
G01 X23.1011 Y37.8660 
G01 X22.9414 Y37.8978 
G01 X22.7786 Y37.8978 
G01 X22.6189 Y37.8660 
G01 X22.4685 Y37.8037 
G01 X22.3331 Y37.7133 
G01 X22.2179 Y37.5981 
G01 X22.1275 Y37.4627 
G01 X22.0652 Y37.3123 
G01 X22.0334 Y37.1526 
G01 X22.0334 Y35.5674 
G01 X22.0652 Y35.4077 
G01 X22.1096 Y35.3004 
G01 X22.1096 Y33.7704 
G01 X20.2461 Y33.7704 
G01 X20.1011 Y33.7416 
G01 X19.9646 Y33.6850 
G01 X19.8416 Y33.6029 
G01 X19.7371 Y33.4984 
G01 X19.6550 Y33.3754 
G01 X19.5984 Y33.2389 
G01 X19.5696 Y33.0939 
G01 X19.5696 Y31.2219 
G01 X19.5151 Y31.1674 
G01 X19.4175 Y31.0330 
G01 X19.3421 Y30.8851 
G01 X19.2908 Y30.7271 
G01 X19.2648 Y30.5630 
G01 X19.2648 Y30.3970 
G01 X19.2908 Y30.2329 
G01 X19.3421 Y30.0749 
G01 X19.4175 Y29.9270 
G01 X19.5151 Y29.7926 
G01 X19.6326 Y29.6751 
G01 X19.7670 Y29.5775 
G01 X19.9149 Y29.5021 
G01 X20.0729 Y29.4508 
G01 X20.2370 Y29.4248 
G01 X20.4030 Y29.4248 
G01 X20.5671 Y29.4508 
G01 X20.7251 Y29.5021 
G01 X20.8730 Y29.5775 
G01 X21.0074 Y29.6751 
G01 X21.1249 Y29.7926 
G01 X21.2225 Y29.9270 
G01 X21.2979 Y30.0749 
G01 X21.3492 Y30.2329 
G01 X21.3752 Y30.3970 
G00 Z2.5400  
G00 X16.0666 Y11.9074 
G01 Z-0.2200 F254   
G01 X16.0666 Y11.9496 F508   
G01 X20.8481 Y11.9496 
G01 X20.9026 Y11.8951 
G01 X21.0370 Y11.7975 
G01 X21.1849 Y11.7221 
G01 X21.3429 Y11.6708 
G01 X21.5069 Y11.6448 
G01 X21.6730 Y11.6448 
G01 X21.8371 Y11.6708 
G01 X21.9951 Y11.7221 
G01 X22.1430 Y11.7975 
G01 X22.2774 Y11.8951 
G01 X22.3949 Y12.0126 
G01 X22.4925 Y12.1470 
G01 X22.5679 Y12.2949 
G01 X22.6192 Y12.4529 
G01 X22.6452 Y12.6170 
G01 X22.6452 Y12.7830 
G01 X22.6192 Y12.9471 
G01 X22.5679 Y13.1051 
G01 X22.4925 Y13.2530 
G01 X22.3949 Y13.3874 
G01 X22.2774 Y13.5049 
G01 X22.1430 Y13.6025 
G01 X21.9951 Y13.6779 
G01 X21.8371 Y13.7292 
G01 X21.6730 Y13.7552 
G01 X21.5069 Y13.7552 
G01 X21.3429 Y13.7292 
G01 X21.1849 Y13.6779 
G01 X21.0370 Y13.6025 
G01 X20.9026 Y13.5049 
G01 X20.8481 Y13.4504 
G01 X16.0666 Y13.4504 
G01 X16.0666 Y13.4926 
G01 X16.0348 Y13.6523 
G01 X15.9725 Y13.8027 
G01 X15.8821 Y13.9381 
G01 X15.7669 Y14.0533 
G01 X15.6315 Y14.1437 
G01 X15.4811 Y14.2060 
G01 X15.3214 Y14.2378 
G01 X15.1586 Y14.2378 
G01 X14.9989 Y14.2060 
G01 X14.8485 Y14.1437 
G01 X14.7131 Y14.0533 
G01 X14.5979 Y13.9381 
G01 X14.5075 Y13.8027 
G01 X14.4452 Y13.6523 
G01 X14.4134 Y13.4926 
G01 X14.4134 Y11.9074 
G01 X14.4452 Y11.7477 
G01 X14.5075 Y11.5973 
G01 X14.5979 Y11.4619 
G01 X14.7131 Y11.3467 
G01 X14.8485 Y11.2563 
G01 X14.9989 Y11.1940 
G01 X15.1586 Y11.1622 
G01 X15.3214 Y11.1622 
G01 X15.4811 Y11.1940 
G01 X15.6315 Y11.2563 
G01 X15.7669 Y11.3467 
G01 X15.8821 Y11.4619 
G01 X15.9725 Y11.5973 
G01 X16.0348 Y11.7477 
G01 X16.0666 Y11.9074 
G00 Z2.5400  
G00 X22.0334 Y46.5126 
G01 Z-0.2200 F254   
G01 X22.0334 Y44.9274 F508   
G01 X22.0652 Y44.7677 
G01 X22.1096 Y44.6604 
G01 X22.1096 Y43.9361 
G01 X22.1384 Y43.7911 
G01 X22.1950 Y43.6546 
G01 X22.2771 Y43.5316 
G01 X23.3796 Y42.4292 
G01 X23.3796 Y42.1819 
G01 X23.3251 Y42.1274 
G01 X23.2275 Y41.9930 
G01 X23.1521 Y41.8451 
G01 X23.1008 Y41.6871 
G01 X23.0748 Y41.5230 
G01 X23.0748 Y41.3570 
G01 X23.1008 Y41.1929 
G01 X23.1521 Y41.0349 
G01 X23.2275 Y40.8870 
G01 X23.3251 Y40.7526 
G01 X23.3796 Y40.6981 
G01 X23.3796 Y39.2961 
G01 X23.4084 Y39.1511 
G01 X23.4650 Y39.0145 
G01 X23.5471 Y38.8916 
G01 X23.6516 Y38.7871 
G01 X27.3571 Y35.0817 
G01 X27.4616 Y34.9771 
G01 X27.5846 Y34.8950 
G01 X27.7211 Y34.8384 
G01 X27.8661 Y34.8096 
G01 X32.1555 Y34.8096 
G01 X32.2832 Y34.7842 
G01 X33.7568 Y34.7842 
G01 X33.9067 Y34.8140 
G01 X34.0479 Y34.8725 
G01 X34.1749 Y34.9574 
G01 X34.2830 Y35.0655 
G01 X34.3679 Y35.1925 
G01 X34.4264 Y35.3337 
G01 X34.4562 Y35.4836 
G01 X34.4562 Y35.6364 
G01 X34.4264 Y35.7863 
G01 X34.3679 Y35.9275 
G01 X34.2830 Y36.0545 
G01 X34.1749 Y36.1626 
G01 X34.0479 Y36.2475 
G01 X33.9067 Y36.3060 
G01 X33.7568 Y36.3358 
G01 X32.2832 Y36.3358 
G01 X32.1555 Y36.3104 
G01 X28.2508 Y36.3104 
G01 X24.8804 Y39.6808 
G01 X24.8804 Y40.6981 
G01 X24.9349 Y40.7526 
G01 X25.0325 Y40.8870 
G01 X25.1079 Y41.0349 
G01 X25.1592 Y41.1929 
G01 X25.1852 Y41.3570 
G01 X25.1852 Y41.5230 
G01 X25.1592 Y41.6871 
G01 X25.1079 Y41.8451 
G01 X25.0325 Y41.9930 
G01 X24.9349 Y42.1274 
G01 X24.8804 Y42.1819 
G01 X24.8804 Y42.8139 
G01 X24.8516 Y42.9589 
G01 X24.7950 Y43.0954 
G01 X24.7129 Y43.2184 
G01 X23.6104 Y44.3208 
G01 X23.6104 Y44.6604 
G01 X23.6548 Y44.7677 
G01 X23.6866 Y44.9274 
G01 X23.6866 Y46.5126 
G01 X23.6548 Y46.6723 
G01 X23.5925 Y46.8227 
G01 X23.5021 Y46.9581 
G01 X23.3869 Y47.0733 
G01 X23.2515 Y47.1637 
G01 X23.1011 Y47.2260 
G01 X22.9414 Y47.2578 
G01 X22.7786 Y47.2578 
G01 X22.6189 Y47.2260 
G01 X22.4685 Y47.1637 
G01 X22.3331 Y47.0733 
G01 X22.2179 Y46.9581 
G01 X22.1275 Y46.8227 
G01 X22.0652 Y46.6723 
G01 X22.0334 Y46.5126 
G00 Z2.5400  
G00 X60.4104 Y80.4762 
G01 Z-0.2200 F254   
G01 X60.5832 Y80.4200 F508   
G01 X60.7451 Y80.3375 
G01 X60.8922 Y80.2307 
G01 X61.0207 Y80.1022 
G01 X61.1275 Y79.9551 
G01 X61.2100 Y79.7932 
G01 X61.2662 Y79.6204 
G01 X61.2666 Y79.6178 
G01 X61.2426 Y79.6178 
G01 X61.1885 Y79.7843 
G01 X61.1077 Y79.9430 
G01 X61.0030 Y80.0871 
G01 X60.8771 Y80.2130 
G01 X60.7330 Y80.3177 
G01 X60.5743 Y80.3985 
G01 X60.4078 Y80.4526 
G01 X60.4078 Y80.4766 
G01 X60.4104 Y80.4762 
G00 Z2.5400  
G00 X59.5349 Y78.3625 
G01 Z-0.2200 F254   
G01 X59.3878 Y78.4693 F508   
G01 X59.2593 Y78.5978 
G01 X59.2904 Y78.5996 
G01 X59.4029 Y78.4870 
G01 X59.5470 Y78.3823 
G01 X59.7057 Y78.3015 
G01 X59.8722 Y78.2474 
G01 X59.8722 Y78.2234 
G01 X59.8696 Y78.2238 
G01 X59.6968 Y78.2800 
G01 X59.5349 Y78.3625 
G00 Z2.5400  
G00 X59.5349 Y80.3375 
G01 Z-0.2200 F254   
G01 X59.6968 Y80.4200 F508   
G01 X59.8696 Y80.4762 
G01 X59.8722 Y80.4766 
G01 X59.8722 Y80.4526 
G01 X59.7057 Y80.3985 
G01 X59.5470 Y80.3177 
G01 X59.4029 Y80.2130 
G01 X59.2904 Y80.1004 
G01 X59.2580 Y80.1004 
G01 X59.3878 Y80.2307 
G01 X59.5349 Y80.3375 
G00 Z2.5400  
G00 X61.2662 Y79.0796 
G01 Z-0.2200 F254   
G01 X61.2100 Y78.9068 F508   
G01 X61.1275 Y78.7449 
G01 X61.0207 Y78.5978 
G01 X60.8922 Y78.4693 
G01 X60.7451 Y78.3625 
G01 X60.5832 Y78.2800 
G01 X60.4104 Y78.2238 
G01 X60.4078 Y78.2234 
G01 X60.4078 Y78.2474 
G01 X60.5743 Y78.3015 
G01 X60.7330 Y78.3823 
G01 X60.8771 Y78.4870 
G01 X61.0030 Y78.6129 
G01 X61.1077 Y78.7570 
G01 X61.1885 Y78.9157 
G01 X61.2426 Y79.0822 
G01 X61.2666 Y79.0822 
G01 X61.2662 Y79.0796 
G00 Z2.5400  
G00 X42.0629 Y74.6478 
G01 Z-0.2200 F254   
G01 X42.6664 Y74.9962 F508   
G01 X43.3396 Y75.1766 
G01 X44.3169 Y75.1766 
G01 X44.3873 Y75.2058 
G01 X44.4412 Y75.2597 
G01 X44.4704 Y75.3301 
G01 X44.4704 Y81.4651 
G01 X44.4412 Y81.5355 
G01 X44.3873 Y81.5894 
G01 X43.4938 Y82.4829 
G01 X43.1621 Y83.0575 
G01 X42.9904 Y83.6983 
G01 X42.9904 Y85.4189 
G01 X42.9612 Y85.4893 
G01 X42.9073 Y85.5432 
G01 X42.6254 Y85.8252 
G01 X42.6254 Y88.2148 
G01 X44.3152 Y89.9046 
G01 X46.7048 Y89.9046 
G01 X46.9868 Y89.6227 
G01 X47.0342 Y89.5752 
G01 X47.0407 Y89.5688 
G01 X47.1111 Y89.5396 
G01 X49.7917 Y89.5396 
G01 X50.4325 Y89.3679 
G01 X51.0071 Y89.0362 
G01 X51.5210 Y88.5223 
G01 X52.2271 Y87.8162 
G01 X52.2975 Y87.7870 
G01 X52.3418 Y87.7870 
G01 X53.0019 Y87.6101 
G01 X53.1633 Y87.5169 
G01 X53.1836 Y87.5014 
G01 X53.1960 Y87.4980 
G01 X53.2072 Y87.4916 
G01 X53.2325 Y87.4883 
G01 X53.2572 Y87.4816 
G01 X53.2700 Y87.4833 
G01 X53.2828 Y87.4816 
G01 X53.3074 Y87.4883 
G01 X53.3328 Y87.4916 
G01 X53.3439 Y87.4980 
G01 X53.3564 Y87.5014 
G01 X53.3767 Y87.5169 
G01 X53.5381 Y87.6101 
G01 X54.1982 Y87.7870 
G01 X54.8818 Y87.7870 
G01 X55.5419 Y87.6101 
G01 X56.1339 Y87.2684 
G01 X56.5765 Y86.8257 
G01 X56.6221 Y86.7801 
G01 X56.6304 Y86.7718 
G01 X56.7009 Y86.7426 
G01 X57.7941 Y86.7426 
G01 X57.8645 Y86.7718 
G01 X57.9184 Y86.8257 
G01 X58.0565 Y86.9637 
G01 X58.7491 Y87.2506 
G01 X60.7050 Y87.2506 
G01 X60.7754 Y87.2798 
G01 X60.8293 Y87.3337 
G01 X60.8585 Y87.4041 
G01 X60.8585 Y87.4803 
G01 X60.8293 Y87.5507 
G01 X60.7754 Y87.6046 
G01 X60.4361 Y87.9439 
G01 X59.8981 Y88.9997 
G01 X59.7128 Y90.1700 
G01 X59.8981 Y91.3403 
G01 X60.4361 Y92.3961 
G01 X60.6415 Y92.6015 
G01 X60.6707 Y92.6719 
G01 X60.6707 Y92.7481 
G01 X60.6415 Y92.8185 
G01 X60.5876 Y92.8724 
G01 X60.5172 Y92.9016 
G01 X10.6028 Y92.9016 
G01 X10.5324 Y92.8724 
G01 X10.4785 Y92.8185 
G01 X10.4493 Y92.7481 
G01 X10.4493 Y92.6719 
G01 X10.4785 Y92.6015 
G01 X10.6839 Y92.3961 
G01 X11.2218 Y91.3403 
G01 X11.4072 Y90.1700 
G01 X11.2218 Y88.9997 
G01 X10.6839 Y87.9439 
G01 X9.8461  Y87.1061 
G01 X8.7903  Y86.5681 
G01 X7.6200  Y86.3828 
G01 X6.4497  Y86.5681 
G01 X5.3939  Y87.1061 
G01 X4.5561  Y87.9439 
G01 X4.0181  Y88.9997 
G01 X4.0016  Y89.1042 
G01 X4.0016  Y89.1272 
G01 X3.9957  Y89.1415 
G01 X3.9933  Y89.1567 
G01 X3.9812  Y89.1763 
G01 X3.9724  Y89.1976 
G01 X3.9615  Y89.2085 
G01 X3.9535  Y89.2217 
G01 X3.9348  Y89.2352 
G01 X3.9185  Y89.2515 
G01 X3.9043  Y89.2574 
G01 X3.8918  Y89.2665 
G01 X3.8694  Y89.2719 
G01 X3.8481  Y89.2807 
G01 X3.8327  Y89.2807 
G01 X3.8177  Y89.2843 
G01 X3.7949  Y89.2807 
G01 X3.7719  Y89.2807 
G01 X3.7576  Y89.2748 
G01 X3.7424  Y89.2724 
G01 X3.7228  Y89.2603 
G01 X3.7015  Y89.2515 
G01 X3.6906  Y89.2406 
G01 X3.6774  Y89.2326 
G01 X3.6639  Y89.2139 
G01 X3.6476  Y89.1976 
G01 X3.6417  Y89.1834 
G01 X3.6326  Y89.1709 
G01 X3.6272  Y89.1485 
G01 X3.6184  Y89.1272 
G01 X3.6184  Y89.1118 
G01 X3.6148  Y89.0968 
G01 X3.6184  Y89.0740 
G01 X3.6184  Y6.1760  
G01 X3.6148  Y6.1532  
G01 X3.6184  Y6.1382  
G01 X3.6184  Y6.1228  
G01 X3.6272  Y6.1015  
G01 X3.6326  Y6.0791  
G01 X3.6417  Y6.0666  
G01 X3.6476  Y6.0524  
G01 X3.6639  Y6.0361  
G01 X3.6774  Y6.0174  
G01 X3.6906  Y6.0094  
G01 X3.7015  Y5.9985  
G01 X3.7228  Y5.9897  
G01 X3.7424  Y5.9776  
G01 X3.7576  Y5.9752  
G01 X3.7719  Y5.9693  
G01 X3.7949  Y5.9693  
G01 X3.8177  Y5.9657  
G01 X3.8327  Y5.9693  
G01 X3.8481  Y5.9693  
G01 X3.8694  Y5.9781  
G01 X3.8918  Y5.9835  
G01 X3.9043  Y5.9926  
G01 X3.9185  Y5.9985  
G01 X3.9348  Y6.0148  
G01 X3.9535  Y6.0283  
G01 X3.9615  Y6.0415  
G01 X3.9724  Y6.0524  
G01 X3.9812  Y6.0736  
G01 X3.9933  Y6.0933  
G01 X3.9957  Y6.1085  
G01 X4.0016  Y6.1228  
G01 X4.0016  Y6.1458  
G01 X4.0181  Y6.2503  
G01 X4.5561  Y7.3061  
G01 X5.3939  Y8.1439  
G01 X6.4497  Y8.6819  
G01 X7.6200  Y8.8672  
G01 X8.7903  Y8.6819  
G01 X9.8461  Y8.1439  
G01 X10.6839 Y7.3061  
G01 X11.2218 Y6.2503  
G01 X11.4072 Y5.0800  
G01 X11.2218 Y3.9097  
G01 X10.6839 Y2.8539  
G01 X10.5324 Y2.7024  
G01 X10.4805 Y2.6505  
G01 X10.4493 Y2.5781  
G01 X10.4493 Y2.5019  
G01 X10.4785 Y2.4315  
G01 X10.5316 Y2.3784  
G01 X10.6028 Y2.3484  
G01 X60.5172 Y2.3484  
G01 X60.5876 Y2.3776  
G01 X60.6415 Y2.4315  
G01 X60.6707 Y2.5019  
G01 X60.6707 Y2.5781  
G01 X60.6415 Y2.6485  
G01 X60.5876 Y2.7024  
G01 X60.4361 Y2.8539  
G01 X59.8981 Y3.9097  
G01 X59.7128 Y5.0800  
G01 X59.8981 Y6.2503  
G01 X60.4361 Y7.3061  
G01 X61.2739 Y8.1439  
G01 X62.3297 Y8.6819  
G01 X63.5000 Y8.8672  
G01 X64.6703 Y8.6819  
G01 X65.7261 Y8.1439  
G01 X66.5639 Y7.3061  
G01 X67.1018 Y6.2503  
G01 X67.2872 Y5.0800  
G01 X67.1018 Y3.9097  
G01 X66.5639 Y2.8539  
G01 X66.4124 Y2.7024  
G01 X66.3605 Y2.6505  
G01 X66.3293 Y2.5781  
G01 X66.3293 Y2.5019  
G01 X66.3585 Y2.4315  
G01 X66.4116 Y2.3784  
G01 X66.4828 Y2.3484  
G01 X67.3481 Y2.3484  
G01 X67.4185 Y2.3776  
G01 X67.4724 Y2.4315  
G01 X68.7424 Y3.7015  
G01 X68.7716 Y3.7719  
G01 X68.7716 Y91.4781 
G01 X68.7424 Y91.5485 
G01 X68.6885 Y91.6024 
G01 X67.4185 Y92.8724 
G01 X67.3481 Y92.9016 
G01 X66.4828 Y92.9016 
G01 X66.4124 Y92.8724 
G01 X66.3585 Y92.8185 
G01 X66.3293 Y92.7481 
G01 X66.3293 Y92.6719 
G01 X66.3585 Y92.6015 
G01 X66.4124 Y92.5476 
G01 X66.5639 Y92.3961 
G01 X67.1018 Y91.3403 
G01 X67.2872 Y90.1700 
G01 X67.1018 Y88.9997 
G01 X66.5639 Y87.9439 
G01 X65.7261 Y87.1061 
G01 X64.6703 Y86.5681 
G01 X63.5000 Y86.3828 
G01 X63.0841 Y86.4487 
G01 X63.0698 Y86.4546 
G01 X63.0468 Y86.4546 
G01 X63.0241 Y86.4582 
G01 X63.0090 Y86.4546 
G01 X62.9936 Y86.4546 
G01 X62.9723 Y86.4458 
G01 X62.9499 Y86.4404 
G01 X62.9375 Y86.4313 
G01 X62.9232 Y86.4254 
G01 X62.9069 Y86.4091 
G01 X62.8883 Y86.3956 
G01 X62.8802 Y86.3824 
G01 X62.8693 Y86.3715 
G01 X62.8605 Y86.3502 
G01 X62.8484 Y86.3306 
G01 X62.8460 Y86.3153 
G01 X62.8401 Y86.3011 
G01 X62.8401 Y86.2780 
G01 X62.8365 Y86.2553 
G01 X62.8401 Y86.2403 
G01 X62.8401 Y86.2249 
G01 X62.8489 Y86.2036 
G01 X62.8543 Y86.1812 
G01 X62.8634 Y86.1687 
G01 X63.0406 Y85.7409 
G01 X63.0406 Y82.9591 
G01 X62.7537 Y82.2665 
G01 X62.2235 Y81.7363 
G01 X61.5309 Y81.4494 
G01 X58.7491 Y81.4494 
G01 X58.0565 Y81.7363 
G01 X57.9184 Y81.8743 
G01 X57.8664 Y81.9263 
G01 X57.7941 Y81.9574 
G01 X56.4409 Y81.9574 
G01 X56.3704 Y81.9282 
G01 X56.3165 Y81.8743 
G01 X56.1339 Y81.6916 
G01 X55.5419 Y81.3499 
G01 X54.8818 Y81.1730 
G01 X54.1982 Y81.1730 
G01 X53.5381 Y81.3499 
G01 X53.3767 Y81.4431 
G01 X53.3564 Y81.4586 
G01 X53.3439 Y81.4620 
G01 X53.3328 Y81.4684 
G01 X53.3074 Y81.4717 
G01 X53.2828 Y81.4784 
G01 X53.2700 Y81.4767 
G01 X53.2572 Y81.4784 
G01 X53.2325 Y81.4717 
G01 X53.2072 Y81.4684 
G01 X53.1960 Y81.4620 
G01 X53.1836 Y81.4586 
G01 X53.1633 Y81.4431 
G01 X53.0019 Y81.3499 
G01 X52.3418 Y81.1730 
G01 X51.6582 Y81.1730 
G01 X50.9981 Y81.3499 
G01 X50.4061 Y81.6916 
G01 X49.9228 Y82.1749 
G01 X49.8734 Y82.2606 
G01 X49.8636 Y82.2842 
G01 X49.8545 Y82.2933 
G01 X49.8481 Y82.3044 
G01 X49.8278 Y82.3200 
G01 X49.8097 Y82.3381 
G01 X49.7978 Y82.3430 
G01 X49.7876 Y82.3509 
G01 X49.7629 Y82.3575 
G01 X49.7393 Y82.3672 
G01 X49.7264 Y82.3672 
G01 X49.7140 Y82.3706 
G01 X49.6886 Y82.3672 
G01 X49.6631 Y82.3672 
G01 X49.6512 Y82.3623 
G01 X49.6384 Y82.3606 
G01 X49.6163 Y82.3479 
G01 X49.5927 Y82.3381 
G01 X49.5836 Y82.3290 
G01 X49.5724 Y82.3225 
G01 X49.5568 Y82.3022 
G01 X49.5388 Y82.2842 
G01 X49.5338 Y82.2723 
G01 X49.5260 Y82.2621 
G01 X49.5194 Y82.2374 
G01 X49.5096 Y82.2138 
G01 X49.5096 Y82.2009 
G01 X49.5063 Y82.1884 
G01 X49.5096 Y82.1631 
G01 X49.5096 Y73.3283 
G01 X49.3379 Y72.6875 
G01 X49.0062 Y72.1129 
G01 X48.4923 Y71.5990 
G01 X47.6336 Y70.7404 
G01 X45.6682 Y70.7404 
G01 X45.6276 Y70.7675 
G01 X45.4679 Y70.8337 
G01 X45.2984 Y70.8674 
G01 X43.6016 Y70.8674 
G01 X43.4321 Y70.8337 
G01 X43.2724 Y70.7675 
G01 X43.1287 Y70.6715 
G01 X43.0706 Y70.6134 
G01 X41.8617 Y70.6134 
G01 X41.5702 Y70.9049 
G01 X41.2218 Y71.5084 
G01 X41.1804 Y71.6628 
G01 X41.1804 Y73.3972 
G01 X41.2218 Y73.5515 
G01 X41.5702 Y74.1551 
G01 X42.0629 Y74.6478 
G00 Z2.5400  
G00 X59.1010 Y83.2186 
G01 Z-0.2200 F254   
G01 X61.1790 Y83.2186 F508   
G01 X61.2214 Y83.2362 
G01 X61.2538 Y83.2686 
G01 X61.2714 Y83.3110 
G01 X61.2714 Y85.3890 
G01 X61.2538 Y85.4314 
G01 X61.2214 Y85.4638 
G01 X61.1790 Y85.4814 
G01 X59.1010 Y85.4814 
G01 X59.0586 Y85.4638 
G01 X59.0262 Y85.4314 
G01 X59.0086 Y85.3890 
G01 X59.0086 Y84.9734 
G01 X55.3666 Y84.9734 
G01 X55.3666 Y85.2726 
G01 X55.3348 Y85.4323 
G01 X55.2725 Y85.5827 
G01 X55.1821 Y85.7181 
G01 X55.0669 Y85.8333 
G01 X54.9315 Y85.9237 
G01 X54.7811 Y85.9860 
G01 X54.6214 Y86.0178 
G01 X54.4586 Y86.0178 
G01 X54.2989 Y85.9860 
G01 X54.1485 Y85.9237 
G01 X54.0131 Y85.8333 
G01 X53.8979 Y85.7181 
G01 X53.8075 Y85.5827 
G01 X53.7452 Y85.4323 
G01 X53.7134 Y85.2726 
G01 X53.7134 Y83.6874 
G01 X53.7452 Y83.5277 
G01 X53.8075 Y83.3773 
G01 X53.8979 Y83.2419 
G01 X54.0131 Y83.1267 
G01 X54.1485 Y83.0363 
G01 X54.2989 Y82.9740 
G01 X54.4586 Y82.9422 
G01 X54.6214 Y82.9422 
G01 X54.7811 Y82.9740 
G01 X54.9315 Y83.0363 
G01 X55.0669 Y83.1267 
G01 X55.1821 Y83.2419 
G01 X55.2725 Y83.3773 
G01 X55.3348 Y83.5277 
G01 X55.3666 Y83.6874 
G01 X55.3666 Y83.7266 
G01 X59.0086 Y83.7266 
G01 X59.0086 Y83.3110 
G01 X59.0262 Y83.2686 
G01 X59.0586 Y83.2362 
G01 X59.1010 Y83.2186 
G00 Z2.5400  
G00 X45.2984 Y73.4074 
G01 Z-0.2200 F254   
G01 X43.6016 Y73.4074 F508   
G01 X43.4321 Y73.3737 
G01 X43.2724 Y73.3075 
G01 X43.1287 Y73.2115 
G01 X43.0065 Y73.0893 
G01 X42.9105 Y72.9456 
G01 X42.8443 Y72.7859 
G01 X42.8106 Y72.6164 
G01 X42.8106 Y72.4436 
G01 X42.8443 Y72.2741 
G01 X42.9105 Y72.1144 
G01 X43.0065 Y71.9707 
G01 X43.1287 Y71.8485 
G01 X43.2724 Y71.7525 
G01 X43.4321 Y71.6863 
G01 X43.6016 Y71.6526 
G01 X45.2984 Y71.6526 
G01 X45.4679 Y71.6863 
G01 X45.6276 Y71.7525 
G01 X45.6682 Y71.7796 
G01 X45.9339 Y71.7796 
G01 X46.0789 Y71.8084 
G01 X46.2154 Y71.8650 
G01 X46.3384 Y71.9471 
G01 X47.4684 Y73.0771 
G01 X47.5729 Y73.1816 
G01 X47.6550 Y73.3046 
G01 X47.7116 Y73.4411 
G01 X47.7404 Y73.5861 
G01 X47.7404 Y82.6239 
G01 X47.7116 Y82.7689 
G01 X47.6550 Y82.9054 
G01 X47.5729 Y83.0284 
G01 X47.4684 Y83.1329 
G01 X46.2604 Y84.3408 
G01 X46.2604 Y86.1930 
G01 X46.3370 Y86.2696 
G01 X49.1492 Y86.2696 
G01 X51.1734 Y84.2454 
G01 X51.1734 Y83.6874 
G01 X51.2052 Y83.5277 
G01 X51.2675 Y83.3773 
G01 X51.3579 Y83.2419 
G01 X51.4731 Y83.1267 
G01 X51.6085 Y83.0363 
G01 X51.7589 Y82.9740 
G01 X51.9186 Y82.9422 
G01 X52.0814 Y82.9422 
G01 X52.2411 Y82.9740 
G01 X52.3915 Y83.0363 
G01 X52.5269 Y83.1267 
G01 X52.6421 Y83.2419 
G01 X52.7325 Y83.3773 
G01 X52.7948 Y83.5277 
G01 X52.8266 Y83.6874 
G01 X52.8266 Y85.2726 
G01 X52.7948 Y85.4323 
G01 X52.7325 Y85.5827 
G01 X52.6421 Y85.7181 
G01 X52.5269 Y85.8333 
G01 X52.3915 Y85.9237 
G01 X52.2411 Y85.9860 
G01 X52.0814 Y86.0178 
G01 X51.9186 Y86.0178 
G01 X51.7589 Y85.9860 
G01 X51.6149 Y85.9264 
G01 X50.0429 Y87.4984 
G01 X49.9383 Y87.6029 
G01 X49.8154 Y87.6850 
G01 X49.6789 Y87.7416 
G01 X49.5339 Y87.7704 
G01 X46.3370 Y87.7704 
G01 X45.9720 Y88.1354 
G01 X45.0480 Y88.1354 
G01 X44.3946 Y87.4820 
G01 X44.3946 Y86.5580 
G01 X44.7596 Y86.1930 
G01 X44.7596 Y83.9561 
G01 X44.7884 Y83.8111 
G01 X44.8450 Y83.6746 
G01 X44.9271 Y83.5516 
G01 X46.2396 Y82.2392 
G01 X46.2396 Y73.9708 
G01 X45.5913 Y73.3226 
G01 X45.4679 Y73.3737 
G01 X45.2984 Y73.4074 
G00 Z2.5400  
G00 X9.6207  Y4.7988  
G01 Z-0.2200 F254   
G01 X9.6207  Y4.7988  F508   
G01 X9.6404  Y5.0800  
G01 X9.6207  Y5.3612  
G01 X9.5621  Y5.6369  
G01 X9.4657  Y5.9018  
G01 X9.3334  Y6.1506  
G01 X9.1677  Y6.3787  
G01 X8.9719  Y6.5814  
G01 X8.7498  Y6.7550  
G01 X8.5057  Y6.8959  
G01 X8.2443  Y7.0015  
G01 X7.9708  Y7.0697  
G01 X7.6905  Y7.0992  
G01 X7.4088  Y7.0893  
G01 X7.1312  Y7.0404  
G01 X6.8631  Y6.9533  
G01 X6.6098  Y6.8297  
G01 X6.3761  Y6.6721  
G01 X6.1666  Y6.4835  
G01 X5.9855  Y6.2676  
G01 X5.8361  Y6.0285  
G01 X5.7214  Y5.7710  
G01 X5.6438  Y5.5001  
G01 X5.6045  Y5.2209  
G01 X5.6045  Y4.9391  
G01 X5.6438  Y4.6599  
G01 X5.7214  Y4.3890  
G01 X5.8361  Y4.1315  
G01 X5.9855  Y3.8924  
G01 X6.1666  Y3.6765  
G01 X6.3761  Y3.4879  
G01 X6.6098  Y3.3303  
G01 X6.8631  Y3.2067  
G01 X7.1312  Y3.1196  
G01 X7.4088  Y3.0707  
G01 X7.6905  Y3.0608  
G01 X7.9708  Y3.0903  
G01 X8.2443  Y3.1585  
G01 X8.5057  Y3.2641  
G01 X8.7498  Y3.4050  
G01 X8.9719  Y3.5786  
G01 X9.1677  Y3.7813  
G01 X9.3334  Y4.0094  
G01 X9.4657  Y4.2582  
G01 X9.5621  Y4.5231  
G01 X9.6207  Y4.7988  
G00 Z2.5400  
G00 X65.5007 Y4.7988  
G01 Z-0.2200 F254   
G01 X65.5007 Y4.7988  F508   
G01 X65.5204 Y5.0800  
G01 X65.5007 Y5.3612  
G01 X65.4421 Y5.6369  
G01 X65.3457 Y5.9018  
G01 X65.2134 Y6.1506  
G01 X65.0477 Y6.3787  
G01 X64.8519 Y6.5814  
G01 X64.6298 Y6.7550  
G01 X64.3857 Y6.8959  
G01 X64.1243 Y7.0015  
G01 X63.8508 Y7.0697  
G01 X63.5705 Y7.0992  
G01 X63.2888 Y7.0893  
G01 X63.0112 Y7.0404  
G01 X62.7431 Y6.9533  
G01 X62.4898 Y6.8297  
G01 X62.2561 Y6.6721  
G01 X62.0466 Y6.4835  
G01 X61.8655 Y6.2676  
G01 X61.7161 Y6.0285  
G01 X61.6014 Y5.7710  
G01 X61.5237 Y5.5001  
G01 X61.4845 Y5.2209  
G01 X61.4845 Y4.9391  
G01 X61.5237 Y4.6599  
G01 X61.6014 Y4.3890  
G01 X61.7161 Y4.1315  
G01 X61.8655 Y3.8924  
G01 X62.0466 Y3.6765  
G01 X62.2561 Y3.4879  
G01 X62.4898 Y3.3303  
G01 X62.7431 Y3.2067  
G01 X63.0112 Y3.1196  
G01 X63.2888 Y3.0707  
G01 X63.5705 Y3.0608  
G01 X63.8508 Y3.0903  
G01 X64.1243 Y3.1585  
G01 X64.3857 Y3.2641  
G01 X64.6298 Y3.4050  
G01 X64.8519 Y3.5786  
G01 X65.0477 Y3.7813  
G01 X65.2134 Y4.0094  
G01 X65.3457 Y4.2582  
G01 X65.4421 Y4.5231  
G01 X65.5007 Y4.7988  
G00 Z2.5400  
G00 X65.5007 Y89.8888 
G01 Z-0.2200 F254   
G01 X65.5007 Y89.8888 F508   
G01 X65.5204 Y90.1700 
G01 X65.5007 Y90.4512 
G01 X65.4421 Y90.7269 
G01 X65.3457 Y90.9918 
G01 X65.2134 Y91.2406 
G01 X65.0477 Y91.4687 
G01 X64.8519 Y91.6714 
G01 X64.6298 Y91.8450 
G01 X64.3857 Y91.9859 
G01 X64.1243 Y92.0915 
G01 X63.8508 Y92.1597 
G01 X63.5705 Y92.1892 
G01 X63.2888 Y92.1793 
G01 X63.0112 Y92.1304 
G01 X62.7431 Y92.0433 
G01 X62.4898 Y91.9197 
G01 X62.2561 Y91.7621 
G01 X62.0466 Y91.5735 
G01 X61.8655 Y91.3576 
G01 X61.7161 Y91.1185 
G01 X61.6014 Y90.8610 
G01 X61.5237 Y90.5901 
G01 X61.4845 Y90.3109 
G01 X61.4845 Y90.0291 
G01 X61.5237 Y89.7499 
G01 X61.6014 Y89.4790 
G01 X61.7161 Y89.2215 
G01 X61.8655 Y88.9824 
G01 X62.0466 Y88.7665 
G01 X62.2561 Y88.5779 
G01 X62.4898 Y88.4203 
G01 X62.7431 Y88.2967 
G01 X63.0112 Y88.2096 
G01 X63.2888 Y88.1607 
G01 X63.5705 Y88.1508 
G01 X63.8508 Y88.1803 
G01 X64.1243 Y88.2485 
G01 X64.3857 Y88.3541 
G01 X64.6298 Y88.4950 
G01 X64.8519 Y88.6686 
G01 X65.0477 Y88.8713 
G01 X65.2134 Y89.0994 
G01 X65.3457 Y89.3482 
G01 X65.4421 Y89.6131 
G01 X65.5007 Y89.8888 
G00 Z2.5400  
G00 X9.5621  Y90.7269 
G01 Z-0.2200 F254   
G01 X9.4657  Y90.9918 F508   
G01 X9.3334  Y91.2406 
G01 X9.1677  Y91.4687 
G01 X8.9719  Y91.6714 
G01 X8.7498  Y91.8450 
G01 X8.5057  Y91.9859 
G01 X8.2443  Y92.0915 
G01 X7.9708  Y92.1597 
G01 X7.6905  Y92.1892 
G01 X7.4088  Y92.1793 
G01 X7.1312  Y92.1304 
G01 X6.8631  Y92.0433 
G01 X6.6098  Y91.9197 
G01 X6.3761  Y91.7621 
G01 X6.1666  Y91.5735 
G01 X5.9855  Y91.3576 
G01 X5.8361  Y91.1185 
G01 X5.7214  Y90.8610 
G01 X5.6438  Y90.5901 
G01 X5.6045  Y90.3109 
G01 X5.6045  Y90.0291 
G01 X5.6438  Y89.7499 
G01 X5.7214  Y89.4790 
G01 X5.8361  Y89.2215 
G01 X5.9855  Y88.9824 
G01 X6.1666  Y88.7665 
G01 X6.3761  Y88.5779 
G01 X6.6098  Y88.4203 
G01 X6.8631  Y88.2967 
G01 X7.1312  Y88.2096 
G01 X7.4088  Y88.1607 
G01 X7.6905  Y88.1508 
G01 X7.9708  Y88.1803 
G01 X8.2443  Y88.2485 
G01 X8.5057  Y88.3541 
G01 X8.7498  Y88.4950 
G01 X8.9719  Y88.6686 
G01 X9.1677  Y88.8713 
G01 X9.3334  Y89.0994 
G01 X9.4657  Y89.3482 
G01 X9.5621  Y89.6131 
G01 X9.6207  Y89.8888 
G01 X9.6404  Y90.1700 
G01 X9.6207  Y90.4512 
G01 X9.5621  Y90.7269 
G00 Z2.5400  
G00 X31.5166 Y70.0968 
G01 Z-0.2200 F254   
G01 X31.0032 Y69.5834 F508   
G01 X30.3744 Y69.2203 
G01 X29.6730 Y69.0324 
G01 X28.9470 Y69.0324 
G01 X28.2456 Y69.2203 
G01 X27.6168 Y69.5834 
G01 X27.1034 Y70.0968 
G01 X26.7403 Y70.7256 
G01 X26.5524 Y71.4270 
G01 X26.5524 Y72.1530 
G01 X26.7403 Y72.8544 
G01 X26.7461 Y72.8644 
G01 X26.7623 Y72.8924 
G01 X26.7880 Y72.9370 
G01 X26.7942 Y72.9602 
G01 X26.8097 Y73.0180 
G01 X26.8097 Y73.1019 
G01 X26.7982 Y73.1450 
G01 X26.7880 Y73.1830 
G01 X26.7620 Y73.2281 
G01 X26.7461 Y73.2556 
G01 X26.7403 Y73.2656 
G01 X26.5524 Y73.9669 
G01 X26.5524 Y74.6930 
G01 X26.7403 Y75.3944 
G01 X27.1034 Y76.0232 
G01 X27.6168 Y76.5366 
G01 X28.2456 Y76.8997 
G01 X28.9470 Y77.0876 
G01 X29.6730 Y77.0876 
G01 X30.3744 Y76.8997 
G01 X31.0032 Y76.5366 
G01 X31.5166 Y76.0232 
G01 X31.8797 Y75.3944 
G01 X32.0676 Y74.6930 
G01 X32.0676 Y73.9669 
G01 X31.8797 Y73.2656 
G01 X31.8739 Y73.2556 
G01 X31.8595 Y73.2306 
G01 X31.8320 Y73.1830 
G01 X31.8220 Y73.1457 
G01 X31.8102 Y73.1019 
G01 X31.8102 Y73.0180 
G01 X31.8255 Y72.9610 
G01 X31.8320 Y72.9370 
G01 X31.8570 Y72.8937 
G01 X31.8739 Y72.8644 
G01 X31.8797 Y72.8544 
G01 X32.0676 Y72.1530 
G01 X32.0676 Y71.4270 
G01 X31.8797 Y70.7256 
G01 X31.5166 Y70.0968 
G00 Z2.5400  
G00 X30.5524 Y71.6922 
G01 Z-0.2200 F254   
G01 X30.5524 Y71.8878 F508   
G01 X30.5218 Y72.0809 
G01 X30.4614 Y72.2669 
G01 X30.3726 Y72.4412 
G01 X30.2576 Y72.5994 
G01 X30.1194 Y72.7376 
G01 X29.9612 Y72.8526 
G01 X29.7869 Y72.9414 
G01 X29.6009 Y73.0018 
G01 X29.4078 Y73.0324 
G01 X29.2122 Y73.0324 
G01 X29.0191 Y73.0018 
G01 X28.8331 Y72.9414 
G01 X28.6588 Y72.8526 
G01 X28.5006 Y72.7376 
G01 X28.3624 Y72.5994 
G01 X28.2474 Y72.4412 
G01 X28.1586 Y72.2669 
G01 X28.0982 Y72.0809 
G01 X28.0676 Y71.8878 
G01 X28.0676 Y71.6922 
G01 X28.0982 Y71.4991 
G01 X28.1586 Y71.3131 
G01 X28.2474 Y71.1388 
G01 X28.3624 Y70.9806 
G01 X28.5006 Y70.8424 
G01 X28.6588 Y70.7274 
G01 X28.8331 Y70.6386 
G01 X29.0191 Y70.5782 
G01 X29.2122 Y70.5476 
G01 X29.4078 Y70.5476 
G01 X29.6009 Y70.5782 
G01 X29.7869 Y70.6386 
G01 X29.9612 Y70.7274 
G01 X30.1194 Y70.8424 
G01 X30.2576 Y70.9806 
G01 X30.3726 Y71.1388 
G01 X30.4614 Y71.3131 
G01 X30.5218 Y71.4991 
G01 X30.5524 Y71.6922 
G00 Z2.5400  
G00 X30.5524 Y74.2322 
G01 Z-0.2200 F254   
G01 X30.5524 Y74.4278 F508   
G01 X30.5218 Y74.6209 
G01 X30.4614 Y74.8069 
G01 X30.3726 Y74.9812 
G01 X30.2576 Y75.1394 
G01 X30.1194 Y75.2776 
G01 X29.9612 Y75.3926 
G01 X29.7869 Y75.4814 
G01 X29.6009 Y75.5418 
G01 X29.4078 Y75.5724 
G01 X29.2122 Y75.5724 
G01 X29.0191 Y75.5418 
G01 X28.8331 Y75.4814 
G01 X28.6588 Y75.3926 
G01 X28.5006 Y75.2776 
G01 X28.3624 Y75.1394 
G01 X28.2474 Y74.9812 
G01 X28.1586 Y74.8069 
G01 X28.0982 Y74.6209 
G01 X28.0676 Y74.4278 
G01 X28.0676 Y74.2322 
G01 X28.0982 Y74.0391 
G01 X28.1586 Y73.8531 
G01 X28.2474 Y73.6788 
G01 X28.3624 Y73.5206 
G01 X28.5006 Y73.3824 
G01 X28.6588 Y73.2674 
G01 X28.8331 Y73.1786 
G01 X29.0191 Y73.1182 
G01 X29.2122 Y73.0876 
G01 X29.4078 Y73.0876 
G01 X29.6009 Y73.1182 
G01 X29.7869 Y73.1786 
G01 X29.9612 Y73.2674 
G01 X30.1194 Y73.3824 
G01 X30.2576 Y73.5206 
G01 X30.3726 Y73.6788 
G01 X30.4614 Y73.8531 
G01 X30.5218 Y74.0391 
G01 X30.5524 Y74.2322 
G00 Z2.5400  
G00 X49.3826 Y67.6250 
G01 Z-0.2200 F254   
G01 X49.3826 Y56.8350 F508   
G01 X49.2195 Y56.2265 
G01 X48.9046 Y55.6809 
G01 X48.1924 Y54.9687 
G01 X48.1504 Y54.8961 
G01 X48.1348 Y54.8377 
G01 X48.1287 Y54.8150 
G01 X48.1287 Y54.7311 
G01 X48.1504 Y54.6501 
G01 X48.1741 Y54.6091 
G01 X48.1924 Y54.5775 
G01 X48.2517 Y54.5181 
G01 X48.2676 Y54.5022 
G01 X48.2676 Y52.2178 
G01 X48.1068 Y52.0570 
G01 X48.0922 Y52.0424 
G01 X48.0475 Y51.9976 
G01 X48.0055 Y51.9250 
G01 X47.9978 Y51.8961 
G01 X47.9838 Y51.8440 
G01 X47.9838 Y51.7601 
G01 X47.9994 Y51.7020 
G01 X48.0055 Y51.6790 
G01 X48.0428 Y51.6145 
G01 X48.0475 Y51.6064 
G01 X48.0895 Y51.5335 
G01 X48.2526 Y50.9250 
G01 X48.2526 Y48.3893 
G01 X48.2743 Y48.3082 
G01 X48.3163 Y48.2356 
G01 X48.3756 Y48.1763 
G01 X48.4482 Y48.1343 
G01 X48.5293 Y48.1126 
G01 X52.3850 Y48.1126 
G01 X52.9935 Y47.9495 
G01 X53.5391 Y47.6346 
G01 X53.7326 Y47.4410 
G01 X53.7326 Y40.4548 
G01 X53.6930 Y40.3594 
G01 X53.6564 Y40.1751 
G01 X53.6564 Y38.5649 
G01 X53.6930 Y38.3806 
G01 X53.7326 Y38.2852 
G01 X53.7326 Y29.0248 
G01 X53.6930 Y28.9294 
G01 X53.6564 Y28.7451 
G01 X53.6564 Y27.1349 
G01 X53.6930 Y26.9506 
G01 X53.7326 Y26.8552 
G01 X53.7326 Y17.5948 
G01 X53.6930 Y17.4994 
G01 X53.6564 Y17.3151 
G01 X53.6564 Y15.7049 
G01 X53.6930 Y15.5206 
G01 X53.7326 Y15.4252 
G01 X53.7326 Y9.2534  
G01 X52.9766 Y8.4974  
G01 X45.2690 Y8.4974  
