(.../Documents/EAGLE/ulps/pcb-gcode.ulp)
(Copyright 2005 - 2012 by John Johnson)
(See readme.txt for licensing terms.)
(This file generated from the board:)
(.../MarazLiteKumanda/MarazLiteKumanda.brd)
(Current profile is .../Documents/EAGLE/ulps/profiles/mach.pp  )
(This file generated 9.09.2019 01:41)
(Settings from pcb-machine.h)
(  Tool Size)
(0.1800  )
(Z Axis Settings)
(  High     Up        Down     Drill)
(12.7000 	2.5400  	-0.2200 	-0.8128 )
(spindle on time = 3.0000)
(milling depth = -0.2540)
(text depth = -0.1270)
(tool change at 12.7000 15.2400 25.4000 )
(feed rate xy = F508   )
(feed rate z  = F254   )
(Settings from pcb-defaults.h)
(isolate min = 0.0254)
(isolate max = 0.5080)
(isolate step = 0.1270)
(Generated bottom outlines, bottom drill, )
(Unit of measure: mm)
( Tool|       Size       |  Min Sub |  Max Sub |   Count )
( T01 | 0.813mm 0.0320in | 0.0000in | 0.0000in |       0 )
( T02 | 0.900mm 0.0354in | 0.0000in | 0.0000in |       0 )
( T03 | 0.914mm 0.0360in | 0.0000in | 0.0000in |       0 )
( T04 | 1.000mm 0.0394in | 0.0000in | 0.0000in |       0 )
( T05 | 1.016mm 0.0400in | 0.0000in | 0.0000in |       0 )
( T06 | 1.300mm 0.0512in | 0.0000in | 0.0000in |       0 )
(Metric Mode)
G21
(Absolute Coordinates)
G90
M05
G00 Z25.4000 
G00 X12.7000 Y15.2400 
M06 T01  ; 0.8128  
G01 Z0.0000  F254   
M06 T01  ; 0.8128  
G00 Z2.5400  
M03
G04 P3.000000
G82 X33.0200 Y33.0200 Z-0.8128 F254   R2.5400  P2.000000
G82 X33.0200 Y35.5600 
G82 X33.0200 Y38.1000 
G82 X33.0200 Y40.6400 
G82 X33.0200 Y43.1800 
G82 X33.0200 Y10.1600 
G82 X33.0200 Y12.7000 
G82 X33.0200 Y15.2400 
G82 X33.0200 Y17.7800 
G82 X33.0200 Y20.3200 
G82 X33.0200 Y22.8600 
G82 X33.0200 Y25.4000 
G82 X33.0200 Y27.9400 
G82 X33.0200 Y30.4800 
G82 X40.6400 Y33.0200 
G82 X40.6400 Y35.5600 
G82 X40.6400 Y38.1000 
G82 X40.6400 Y40.6400 
G82 X40.6400 Y43.1800 
G82 X40.6400 Y10.1600 
G82 X40.6400 Y12.7000 
G82 X40.6400 Y15.2400 
G82 X40.6400 Y17.7800 
G82 X40.6400 Y20.3200 
G82 X40.6400 Y22.8600 
G82 X40.6400 Y25.4000 
G82 X40.6400 Y27.9400 
G82 X40.6400 Y30.4800 
G82 X20.3200 Y17.7800 
G82 X20.3200 Y20.3200 
G82 X20.3200 Y22.8600 
G82 X20.3200 Y25.4000 
M05
G00 Z25.4000 
M06 T02  ; 0.9000  
G01 Z0.0000  F254   
M06 T02  ; 0.9000  
G00 Z2.5400  
M03
G04 P3.000000
G82 X34.2200 Y48.7300 Z-0.8128 F254   R2.5400  P2.000000
G82 X41.8400 Y48.7300 
G82 X12.7000 Y30.4800 
G82 X16.5100 Y41.4400 
G82 X20.3200 Y30.4800 
G82 X21.5900 Y12.7000 
G82 X22.8600 Y30.4800 
G82 X24.1300 Y41.4400 
G82 X29.2100 Y12.7000 
G82 X30.4800 Y30.4800 
M05
G00 Z25.4000 
M06 T03  ; 0.9144  
G01 Z0.0000  F254   
M06 T03  ; 0.9144  
G00 Z2.5400  
M03
G04 P3.000000
G82 X46.9900 Y39.3700 Z-0.8128 F254   R2.5400  P2.000000
G82 X49.5300 Y39.3700 
G82 X49.5300 Y16.5100 
G82 X49.5300 Y27.9400 
G82 X52.0000 Y84.4800 
G82 X52.0700 Y39.3700 
G82 X52.0700 Y16.5100 
G82 X52.0700 Y27.9400 
G82 X54.5400 Y84.4800 
G82 X54.6100 Y39.3700 
G82 X54.6100 Y16.5100 
G82 X54.6100 Y27.9400 
G82 X12.7000 Y12.7000 
G82 X12.7000 Y22.8600 
G82 X15.2400 Y12.7000 
G82 X15.2400 Y22.8600 
G82 X20.3200 Y36.3600 
G82 X20.3200 Y45.7200 
G82 X22.8600 Y36.3600 
G82 X22.8600 Y45.7200 
M05
G00 Z25.4000 
M06 T04  ; 1.0000  
G01 Z0.0000  F254   
M06 T04  ; 1.0000  
G00 Z2.5400  
M03
G04 P3.000000
G82 X40.4300 Y53.3600 Z-0.8128 F254   R2.5400  P2.000000
G82 X40.4300 Y87.0200 
G82 X45.5100 Y53.3600 
G82 X45.5100 Y87.0200 
G82 X16.3100 Y71.7900 
G82 X16.3100 Y74.3300 
G82 X19.0000 Y53.8600 
G82 X21.5400 Y53.8600 
G82 X24.0800 Y53.8600 
G82 X25.4000 Y19.1770 
G82 X25.4000 Y24.0030 
G82 X26.6200 Y53.8600 
G82 X29.3100 Y71.7900 
G82 X29.3100 Y74.3300 
M05
G00 Z25.4000 
M06 T05  ; 1.0160  
G01 Z0.0000  F254   
M06 T05  ; 1.0160  
G00 Z2.5400  
M03
G04 P3.000000
G82 X44.4500 Y67.4500 Z-0.8128 F254   R2.5400  P2.000000
G82 X44.4500 Y69.9900 
G82 X44.4500 Y72.5300 
M05
G00 Z25.4000 
M06 T06  ; 1.3000  
G01 Z0.0000  F254   
M06 T06  ; 1.3000  
G00 Z2.5400  
M03
G04 P3.000000
G82 X60.1400 Y79.3500 Z-0.8128 F254   R2.5400  P2.000000
G82 X60.1400 Y84.3500 
T01 
G00 Z12.7000 
M05
M02
